( PCB Contour )
( Generated by Carbide Copper )
( Material Size )
( X= 152.400, Y= 101.600, Z= 1.580 )
()
G17
G21
G54
G90
G00  X37.989 Y84.879
G01 F750 Z0
G01 F400 Z-0.100
G01 F400 X37.771 Y84.833
G01 F400 X37.568 Y84.742
G01 F400 X37.388 Y84.611
G01 F400 X37.239 Y84.446
G01 F400 X37.128 Y84.253
G01 F400 X37.059 Y84.041
G01 F400 X37.056 Y84.020
G01 F400 X31.236 Y84.020
G01 F400 X31.197 Y84.139
G01 F400 X31.115 Y84.282
G01 F400 X31.005 Y84.404
G01 F400 X30.873 Y84.500
G01 F400 X30.723 Y84.567
G01 F400 X30.562 Y84.601
G01 F400 X30.398 Y84.601
G01 F400 X30.237 Y84.567
G01 F400 X30.087 Y84.500
G01 F400 X29.955 Y84.404
G01 F400 X29.845 Y84.282
G01 F400 X29.763 Y84.139
G01 F400 X29.712 Y83.983
G01 F400 X29.695 Y83.820
G01 F400 X29.712 Y83.657
G01 F400 X29.763 Y83.501
G01 F400 X29.845 Y83.359
G01 F400 X29.955 Y83.237
G01 F400 X30.087 Y83.140
G01 F400 X30.237 Y83.073
G01 F400 X30.398 Y83.039
G01 F400 X30.562 Y83.039
G01 F400 X30.723 Y83.073
G01 F400 X30.873 Y83.140
G01 F400 X31.005 Y83.237
G01 F400 X31.115 Y83.359
G01 F400 X31.197 Y83.501
G01 F400 X31.236 Y83.620
G01 F400 X37.056 Y83.620
G01 F400 X37.059 Y83.599
G01 F400 X37.128 Y83.387
G01 F400 X37.239 Y83.194
G01 F400 X37.388 Y83.029
G01 F400 X37.568 Y82.898
G01 F400 X37.771 Y82.808
G01 F400 X37.989 Y82.761
G01 F400 X38.211 Y82.761
G01 F400 X38.429 Y82.808
G01 F400 X38.632 Y82.898
G01 F400 X38.812 Y83.029
G01 F400 X38.961 Y83.194
G01 F400 X39.073 Y83.387
G01 F400 X39.141 Y83.599
G01 F400 X39.165 Y83.820
G01 F400 X39.141 Y84.041
G01 F400 X39.073 Y84.253
G01 F400 X38.961 Y84.446
G01 F400 X38.812 Y84.611
G01 F400 X38.632 Y84.742
G01 F400 X38.429 Y84.833
G01 F400 X38.211 Y84.879
G01 F400 X37.989 Y84.879
G00 Z3.000
G00  X45.609 Y84.879
G01 F750 Z0
G01 F400 Z-0.100
G01 F400 X45.391 Y84.833
G01 F400 X45.188 Y84.742
G01 F400 X45.008 Y84.611
G01 F400 X44.859 Y84.446
G01 F400 X44.748 Y84.253
G01 F400 X44.679 Y84.041
G01 F400 X44.655 Y83.820
G01 F400 X44.679 Y83.599
G01 F400 X44.748 Y83.387
G01 F400 X44.842 Y83.223
G01 F400 X43.030 Y81.413
G01 F400 X42.981 Y81.329
G01 F400 X42.980 Y74.744
G01 F400 X42.812 Y74.744
G01 F400 X42.589 Y74.697
G01 F400 X42.381 Y74.604
G01 F400 X42.197 Y74.470
G01 F400 X42.044 Y74.301
G01 F400 X41.930 Y74.103
G01 F400 X41.860 Y73.887
G01 F400 X41.836 Y73.660
G01 F400 X41.860 Y73.433
G01 F400 X41.930 Y73.217
G01 F400 X42.044 Y73.019
G01 F400 X42.197 Y72.850
G01 F400 X42.381 Y72.716
G01 F400 X42.589 Y72.623
G01 F400 X42.812 Y72.576
G01 F400 X43.040 Y72.576
G01 F400 X43.263 Y72.623
G01 F400 X43.471 Y72.716
G01 F400 X43.655 Y72.850
G01 F400 X43.808 Y73.019
G01 F400 X43.922 Y73.217
G01 F400 X43.992 Y73.433
G01 F400 X44.016 Y73.660
G01 F400 X43.992 Y73.887
G01 F400 X43.922 Y74.103
G01 F400 X43.808 Y74.301
G01 F400 X43.655 Y74.470
G01 F400 X43.471 Y74.604
G01 F400 X43.379 Y74.645
G01 F400 X43.380 Y81.197
G01 F400 X45.126 Y82.943
G01 F400 X45.188 Y82.898
G01 F400 X45.391 Y82.808
G01 F400 X45.609 Y82.761
G01 F400 X45.831 Y82.761
G01 F400 X46.049 Y82.808
G01 F400 X46.252 Y82.898
G01 F400 X46.432 Y83.029
G01 F400 X46.581 Y83.194
G01 F400 X46.693 Y83.387
G01 F400 X46.761 Y83.599
G01 F400 X46.785 Y83.820
G01 F400 X46.761 Y84.041
G01 F400 X46.693 Y84.253
G01 F400 X46.581 Y84.446
G01 F400 X46.432 Y84.611
G01 F400 X46.252 Y84.742
G01 F400 X46.049 Y84.833
G01 F400 X45.831 Y84.879
G01 F400 X45.609 Y84.879
G00 Z3.000
G00  X27.858 Y84.601
G01 F750 Z0
G01 F400 Z-0.100
G01 F400 X27.697 Y84.567
G01 F400 X27.547 Y84.500
G01 F400 X27.415 Y84.404
G01 F400 X27.305 Y84.282
G01 F400 X27.223 Y84.139
G01 F400 X27.172 Y83.983
G01 F400 X27.155 Y83.820
G01 F400 X27.172 Y83.657
G01 F400 X27.223 Y83.501
G01 F400 X27.305 Y83.359
G01 F400 X27.415 Y83.237
G01 F400 X27.547 Y83.140
G01 F400 X27.697 Y83.073
G01 F400 X27.858 Y83.039
G01 F400 X28.022 Y83.039
G01 F400 X28.183 Y83.073
G01 F400 X28.333 Y83.140
G01 F400 X28.336 Y83.142
G01 F400 X34.726 Y76.751
G01 F400 X34.725 Y74.578
G01 F400 X34.577 Y74.470
G01 F400 X34.424 Y74.301
G01 F400 X34.310 Y74.103
G01 F400 X34.240 Y73.887
G01 F400 X34.216 Y73.660
G01 F400 X34.240 Y73.433
G01 F400 X34.310 Y73.217
G01 F400 X34.424 Y73.019
G01 F400 X34.577 Y72.850
G01 F400 X34.761 Y72.716
G01 F400 X34.969 Y72.623
G01 F400 X35.192 Y72.576
G01 F400 X35.420 Y72.576
G01 F400 X35.643 Y72.623
G01 F400 X35.851 Y72.716
G01 F400 X36.035 Y72.850
G01 F400 X36.188 Y73.019
G01 F400 X36.302 Y73.217
G01 F400 X36.372 Y73.433
G01 F400 X36.396 Y73.660
G01 F400 X36.372 Y73.887
G01 F400 X36.302 Y74.103
G01 F400 X36.188 Y74.301
G01 F400 X36.035 Y74.470
G01 F400 X35.851 Y74.604
G01 F400 X35.643 Y74.697
G01 F400 X35.420 Y74.744
G01 F400 X35.192 Y74.744
G01 F400 X35.131 Y74.731
G01 F400 X35.125 Y76.848
G01 F400 X35.111 Y76.918
G01 F400 X35.071 Y76.972
G01 F400 X28.615 Y83.428
G01 F400 X28.657 Y83.501
G01 F400 X28.708 Y83.657
G01 F400 X28.725 Y83.820
G01 F400 X28.708 Y83.983
G01 F400 X28.657 Y84.139
G01 F400 X28.575 Y84.282
G01 F400 X28.465 Y84.404
G01 F400 X28.333 Y84.500
G01 F400 X28.183 Y84.567
G01 F400 X28.022 Y84.601
G01 F400 X27.858 Y84.601
G00 Z3.000
G00  X72.276 Y74.744
G01 F750 Z0
G01 F400 Z-0.100
G01 F400 X72.053 Y74.697
G01 F400 X71.845 Y74.604
G01 F400 X71.661 Y74.470
G01 F400 X71.508 Y74.301
G01 F400 X71.394 Y74.103
G01 F400 X71.324 Y73.887
G01 F400 X71.300 Y73.660
G01 F400 X71.324 Y73.433
G01 F400 X71.394 Y73.217
G01 F400 X71.508 Y73.019
G01 F400 X71.661 Y72.850
G01 F400 X71.845 Y72.716
G01 F400 X72.053 Y72.623
G01 F400 X72.276 Y72.576
G01 F400 X72.504 Y72.576
G01 F400 X72.727 Y72.623
G01 F400 X72.935 Y72.716
G01 F400 X73.119 Y72.850
G01 F400 X73.272 Y73.019
G01 F400 X73.386 Y73.217
G01 F400 X73.456 Y73.433
G01 F400 X73.480 Y73.660
G01 F400 X73.456 Y73.887
G01 F400 X73.386 Y74.103
G01 F400 X73.272 Y74.301
G01 F400 X73.119 Y74.470
G01 F400 X72.935 Y74.604
G01 F400 X72.727 Y74.697
G01 F400 X72.504 Y74.744
G01 F400 X72.276 Y74.744
G00 Z3.000
G00  X69.736 Y74.744
G01 F750 Z0
G01 F400 Z-0.100
G01 F400 X69.513 Y74.697
G01 F400 X69.305 Y74.604
G01 F400 X69.121 Y74.470
G01 F400 X68.968 Y74.301
G01 F400 X68.854 Y74.103
G01 F400 X68.784 Y73.887
G01 F400 X68.760 Y73.660
G01 F400 X68.784 Y73.433
G01 F400 X68.854 Y73.217
G01 F400 X68.968 Y73.019
G01 F400 X69.121 Y72.850
G01 F400 X69.305 Y72.716
G01 F400 X69.513 Y72.623
G01 F400 X69.736 Y72.576
G01 F400 X69.964 Y72.576
G01 F400 X70.187 Y72.623
G01 F400 X70.395 Y72.716
G01 F400 X70.579 Y72.850
G01 F400 X70.732 Y73.019
G01 F400 X70.846 Y73.217
G01 F400 X70.916 Y73.433
G01 F400 X70.940 Y73.660
G01 F400 X70.916 Y73.887
G01 F400 X70.846 Y74.103
G01 F400 X70.732 Y74.301
G01 F400 X70.579 Y74.470
G01 F400 X70.395 Y74.604
G01 F400 X70.187 Y74.697
G01 F400 X69.964 Y74.744
G01 F400 X69.736 Y74.744
G00 Z3.000
G00  X40.272 Y74.744
G01 F750 Z0
G01 F400 Z-0.100
G01 F400 X40.049 Y74.697
G01 F400 X39.841 Y74.604
G01 F400 X39.657 Y74.470
G01 F400 X39.504 Y74.301
G01 F400 X39.390 Y74.103
G01 F400 X39.320 Y73.887
G01 F400 X39.296 Y73.660
G01 F400 X39.320 Y73.433
G01 F400 X39.390 Y73.217
G01 F400 X39.504 Y73.019
G01 F400 X39.657 Y72.850
G01 F400 X39.841 Y72.716
G01 F400 X40.049 Y72.623
G01 F400 X40.272 Y72.576
G01 F400 X40.500 Y72.576
G01 F400 X40.723 Y72.623
G01 F400 X40.931 Y72.716
G01 F400 X41.115 Y72.850
G01 F400 X41.268 Y73.019
G01 F400 X41.382 Y73.217
G01 F400 X41.452 Y73.433
G01 F400 X41.476 Y73.660
G01 F400 X41.452 Y73.887
G01 F400 X41.382 Y74.103
G01 F400 X41.268 Y74.301
G01 F400 X41.115 Y74.470
G01 F400 X40.931 Y74.604
G01 F400 X40.723 Y74.697
G01 F400 X40.500 Y74.744
G01 F400 X40.272 Y74.744
G00 Z3.000
G00  X37.732 Y74.744
G01 F750 Z0
G01 F400 Z-0.100
G01 F400 X37.509 Y74.697
G01 F400 X37.301 Y74.604
G01 F400 X37.117 Y74.470
G01 F400 X36.964 Y74.301
G01 F400 X36.850 Y74.103
G01 F400 X36.780 Y73.887
G01 F400 X36.756 Y73.660
G01 F400 X36.780 Y73.433
G01 F400 X36.850 Y73.217
G01 F400 X36.964 Y73.019
G01 F400 X37.117 Y72.850
G01 F400 X37.301 Y72.716
G01 F400 X37.509 Y72.623
G01 F400 X37.732 Y72.576
G01 F400 X37.960 Y72.576
G01 F400 X38.183 Y72.623
G01 F400 X38.391 Y72.716
G01 F400 X38.575 Y72.850
G01 F400 X38.728 Y73.019
G01 F400 X38.842 Y73.217
G01 F400 X38.912 Y73.433
G01 F400 X38.936 Y73.660
G01 F400 X38.912 Y73.887
G01 F400 X38.842 Y74.103
G01 F400 X38.728 Y74.301
G01 F400 X38.575 Y74.470
G01 F400 X38.391 Y74.604
G01 F400 X38.183 Y74.697
G01 F400 X37.960 Y74.744
G01 F400 X37.732 Y74.744
G00 Z3.000
G00  X45.352 Y74.744
G01 F750 Z0
G01 F400 Z-0.100
G01 F400 X45.129 Y74.697
G01 F400 X44.921 Y74.604
G01 F400 X44.737 Y74.470
G01 F400 X44.584 Y74.301
G01 F400 X44.470 Y74.103
G01 F400 X44.400 Y73.887
G01 F400 X44.376 Y73.660
G01 F400 X44.400 Y73.433
G01 F400 X44.470 Y73.217
G01 F400 X44.584 Y73.019
G01 F400 X44.737 Y72.850
G01 F400 X44.921 Y72.716
G01 F400 X45.129 Y72.623
G01 F400 X45.352 Y72.576
G01 F400 X45.580 Y72.576
G01 F400 X45.803 Y72.623
G01 F400 X46.011 Y72.716
G01 F400 X46.195 Y72.850
G01 F400 X46.348 Y73.019
G01 F400 X46.462 Y73.217
G01 F400 X46.532 Y73.433
G01 F400 X46.556 Y73.660
G01 F400 X46.532 Y73.887
G01 F400 X46.462 Y74.103
G01 F400 X46.348 Y74.301
G01 F400 X46.195 Y74.470
G01 F400 X46.011 Y74.604
G01 F400 X45.803 Y74.697
G01 F400 X45.580 Y74.744
G01 F400 X45.352 Y74.744
G00 Z3.000
G00  X30.112 Y74.744
G01 F750 Z0
G01 F400 Z-0.100
G01 F400 X29.889 Y74.697
G01 F400 X29.681 Y74.604
G01 F400 X29.497 Y74.470
G01 F400 X29.344 Y74.301
G01 F400 X29.230 Y74.103
G01 F400 X29.160 Y73.887
G01 F400 X29.136 Y73.660
G01 F400 X29.160 Y73.433
G01 F400 X29.230 Y73.217
G01 F400 X29.344 Y73.019
G01 F400 X29.497 Y72.850
G01 F400 X29.681 Y72.716
G01 F400 X29.889 Y72.623
G01 F400 X30.112 Y72.576
G01 F400 X30.340 Y72.576
G01 F400 X30.563 Y72.623
G01 F400 X30.771 Y72.716
G01 F400 X30.955 Y72.850
G01 F400 X31.108 Y73.019
G01 F400 X31.222 Y73.217
G01 F400 X31.292 Y73.433
G01 F400 X31.316 Y73.660
G01 F400 X31.292 Y73.887
G01 F400 X31.222 Y74.103
G01 F400 X31.108 Y74.301
G01 F400 X30.955 Y74.470
G01 F400 X30.771 Y74.604
G01 F400 X30.563 Y74.697
G01 F400 X30.340 Y74.744
G01 F400 X30.112 Y74.744
G00 Z3.000
G00  X27.572 Y74.744
G01 F750 Z0
G01 F400 Z-0.100
G01 F400 X27.349 Y74.697
G01 F400 X27.141 Y74.604
G01 F400 X26.957 Y74.470
G01 F400 X26.804 Y74.301
G01 F400 X26.690 Y74.103
G01 F400 X26.620 Y73.887
G01 F400 X26.596 Y73.660
G01 F400 X26.620 Y73.433
G01 F400 X26.690 Y73.217
G01 F400 X26.804 Y73.019
G01 F400 X26.957 Y72.850
G01 F400 X27.141 Y72.716
G01 F400 X27.349 Y72.623
G01 F400 X27.572 Y72.576
G01 F400 X27.800 Y72.576
G01 F400 X28.023 Y72.623
G01 F400 X28.231 Y72.716
G01 F400 X28.415 Y72.850
G01 F400 X28.568 Y73.019
G01 F400 X28.682 Y73.217
G01 F400 X28.752 Y73.433
G01 F400 X28.776 Y73.660
G01 F400 X28.752 Y73.887
G01 F400 X28.682 Y74.103
G01 F400 X28.568 Y74.301
G01 F400 X28.415 Y74.470
G01 F400 X28.231 Y74.604
G01 F400 X28.023 Y74.697
G01 F400 X27.800 Y74.744
G01 F400 X27.572 Y74.744
G00 Z3.000
G00  X32.652 Y74.744
G01 F750 Z0
G01 F400 Z-0.100
G01 F400 X32.429 Y74.697
G01 F400 X32.221 Y74.604
G01 F400 X32.037 Y74.470
G01 F400 X31.884 Y74.301
G01 F400 X31.770 Y74.103
G01 F400 X31.700 Y73.887
G01 F400 X31.676 Y73.660
G01 F400 X31.700 Y73.433
G01 F400 X31.770 Y73.217
G01 F400 X31.884 Y73.019
G01 F400 X32.037 Y72.850
G01 F400 X32.221 Y72.716
G01 F400 X32.429 Y72.623
G01 F400 X32.652 Y72.576
G01 F400 X32.880 Y72.576
G01 F400 X33.103 Y72.623
G01 F400 X33.311 Y72.716
G01 F400 X33.495 Y72.850
G01 F400 X33.648 Y73.019
G01 F400 X33.762 Y73.217
G01 F400 X33.832 Y73.433
G01 F400 X33.856 Y73.660
G01 F400 X33.832 Y73.887
G01 F400 X33.762 Y74.103
G01 F400 X33.648 Y74.301
G01 F400 X33.495 Y74.470
G01 F400 X33.311 Y74.604
G01 F400 X33.103 Y74.697
G01 F400 X32.880 Y74.744
G01 F400 X32.652 Y74.744
G00 Z3.000
G00  X62.116 Y74.744
G01 F750 Z0
G01 F400 Z-0.100
G01 F400 X61.893 Y74.697
G01 F400 X61.685 Y74.604
G01 F400 X61.501 Y74.470
G01 F400 X61.348 Y74.301
G01 F400 X61.234 Y74.103
G01 F400 X61.164 Y73.887
G01 F400 X61.140 Y73.660
G01 F400 X61.164 Y73.433
G01 F400 X61.234 Y73.217
G01 F400 X61.348 Y73.019
G01 F400 X61.501 Y72.850
G01 F400 X61.685 Y72.716
G01 F400 X61.893 Y72.623
G01 F400 X62.116 Y72.576
G01 F400 X62.344 Y72.576
G01 F400 X62.567 Y72.623
G01 F400 X62.775 Y72.716
G01 F400 X62.959 Y72.850
G01 F400 X63.112 Y73.019
G01 F400 X63.226 Y73.217
G01 F400 X63.296 Y73.433
G01 F400 X63.320 Y73.660
G01 F400 X63.296 Y73.887
G01 F400 X63.226 Y74.103
G01 F400 X63.112 Y74.301
G01 F400 X62.959 Y74.470
G01 F400 X62.775 Y74.604
G01 F400 X62.567 Y74.697
G01 F400 X62.344 Y74.744
G01 F400 X62.116 Y74.744
G00 Z3.000
G00  X59.576 Y74.744
G01 F750 Z0
G01 F400 Z-0.100
G01 F400 X59.353 Y74.697
G01 F400 X59.145 Y74.604
G01 F400 X58.961 Y74.470
G01 F400 X58.808 Y74.301
G01 F400 X58.694 Y74.103
G01 F400 X58.624 Y73.887
G01 F400 X58.600 Y73.660
G01 F400 X58.624 Y73.433
G01 F400 X58.694 Y73.217
G01 F400 X58.808 Y73.019
G01 F400 X58.961 Y72.850
G01 F400 X59.145 Y72.716
G01 F400 X59.353 Y72.623
G01 F400 X59.576 Y72.576
G01 F400 X59.804 Y72.576
G01 F400 X60.027 Y72.623
G01 F400 X60.235 Y72.716
G01 F400 X60.419 Y72.850
G01 F400 X60.572 Y73.019
G01 F400 X60.686 Y73.217
G01 F400 X60.756 Y73.433
G01 F400 X60.780 Y73.660
G01 F400 X60.756 Y73.887
G01 F400 X60.686 Y74.103
G01 F400 X60.572 Y74.301
G01 F400 X60.419 Y74.470
G01 F400 X60.235 Y74.604
G01 F400 X60.027 Y74.697
G01 F400 X59.804 Y74.744
G01 F400 X59.576 Y74.744
G00 Z3.000
G00  X67.196 Y74.744
G01 F750 Z0
G01 F400 Z-0.100
G01 F400 X66.973 Y74.697
G01 F400 X66.765 Y74.604
G01 F400 X66.581 Y74.470
G01 F400 X66.428 Y74.301
G01 F400 X66.314 Y74.103
G01 F400 X66.244 Y73.887
G01 F400 X66.220 Y73.660
G01 F400 X66.244 Y73.433
G01 F400 X66.314 Y73.217
G01 F400 X66.428 Y73.019
G01 F400 X66.581 Y72.850
G01 F400 X66.765 Y72.716
G01 F400 X66.973 Y72.623
G01 F400 X67.196 Y72.576
G01 F400 X67.424 Y72.576
G01 F400 X67.647 Y72.623
G01 F400 X67.855 Y72.716
G01 F400 X68.039 Y72.850
G01 F400 X68.192 Y73.019
G01 F400 X68.306 Y73.217
G01 F400 X68.376 Y73.433
G01 F400 X68.400 Y73.660
G01 F400 X68.376 Y73.887
G01 F400 X68.306 Y74.103
G01 F400 X68.192 Y74.301
G01 F400 X68.039 Y74.470
G01 F400 X67.855 Y74.604
G01 F400 X67.647 Y74.697
G01 F400 X67.424 Y74.744
G01 F400 X67.196 Y74.744
G00 Z3.000
G00  X64.656 Y74.744
G01 F750 Z0
G01 F400 Z-0.100
G01 F400 X64.433 Y74.697
G01 F400 X64.225 Y74.604
G01 F400 X64.041 Y74.470
G01 F400 X63.888 Y74.301
G01 F400 X63.774 Y74.103
G01 F400 X63.704 Y73.887
G01 F400 X63.680 Y73.660
G01 F400 X63.704 Y73.433
G01 F400 X63.774 Y73.217
G01 F400 X63.888 Y73.019
G01 F400 X64.041 Y72.850
G01 F400 X64.225 Y72.716
G01 F400 X64.433 Y72.623
G01 F400 X64.656 Y72.576
G01 F400 X64.884 Y72.576
G01 F400 X65.107 Y72.623
G01 F400 X65.315 Y72.716
G01 F400 X65.499 Y72.850
G01 F400 X65.652 Y73.019
G01 F400 X65.766 Y73.217
G01 F400 X65.836 Y73.433
G01 F400 X65.860 Y73.660
G01 F400 X65.836 Y73.887
G01 F400 X65.766 Y74.103
G01 F400 X65.652 Y74.301
G01 F400 X65.499 Y74.470
G01 F400 X65.315 Y74.604
G01 F400 X65.107 Y74.697
G01 F400 X64.884 Y74.744
G01 F400 X64.656 Y74.744
G00 Z3.000
G00  X50.432 Y74.744
G01 F750 Z0
G01 F400 Z-0.100
G01 F400 X50.209 Y74.697
G01 F400 X50.001 Y74.604
G01 F400 X49.817 Y74.470
G01 F400 X49.664 Y74.301
G01 F400 X49.550 Y74.103
G01 F400 X49.480 Y73.887
G01 F400 X49.456 Y73.660
G01 F400 X49.480 Y73.433
G01 F400 X49.550 Y73.217
G01 F400 X49.664 Y73.019
G01 F400 X49.817 Y72.850
G01 F400 X50.001 Y72.716
G01 F400 X50.209 Y72.623
G01 F400 X50.432 Y72.576
G01 F400 X50.660 Y72.576
G01 F400 X50.883 Y72.623
G01 F400 X51.091 Y72.716
G01 F400 X51.275 Y72.850
G01 F400 X51.428 Y73.019
G01 F400 X51.542 Y73.217
G01 F400 X51.612 Y73.433
G01 F400 X51.636 Y73.660
G01 F400 X51.612 Y73.887
G01 F400 X51.542 Y74.103
G01 F400 X51.428 Y74.301
G01 F400 X51.275 Y74.470
G01 F400 X51.091 Y74.604
G01 F400 X50.883 Y74.697
G01 F400 X50.660 Y74.744
G01 F400 X50.432 Y74.744
G00 Z3.000
G00  X47.892 Y74.744
G01 F750 Z0
G01 F400 Z-0.100
G01 F400 X47.669 Y74.697
G01 F400 X47.461 Y74.604
G01 F400 X47.277 Y74.470
G01 F400 X47.124 Y74.301
G01 F400 X47.010 Y74.103
G01 F400 X46.940 Y73.887
G01 F400 X46.916 Y73.660
G01 F400 X46.940 Y73.433
G01 F400 X47.010 Y73.217
G01 F400 X47.124 Y73.019
G01 F400 X47.277 Y72.850
G01 F400 X47.461 Y72.716
G01 F400 X47.669 Y72.623
G01 F400 X47.892 Y72.576
G01 F400 X48.120 Y72.576
G01 F400 X48.343 Y72.623
G01 F400 X48.551 Y72.716
G01 F400 X48.735 Y72.850
G01 F400 X48.888 Y73.019
G01 F400 X49.002 Y73.217
G01 F400 X49.072 Y73.433
G01 F400 X49.096 Y73.660
G01 F400 X49.072 Y73.887
G01 F400 X49.002 Y74.103
G01 F400 X48.888 Y74.301
G01 F400 X48.735 Y74.470
G01 F400 X48.551 Y74.604
G01 F400 X48.343 Y74.697
G01 F400 X48.120 Y74.744
G01 F400 X47.892 Y74.744
G00 Z3.000
G00  X57.036 Y74.744
G01 F750 Z0
G01 F400 Z-0.100
G01 F400 X56.813 Y74.697
G01 F400 X56.605 Y74.604
G01 F400 X56.421 Y74.470
G01 F400 X56.268 Y74.301
G01 F400 X56.154 Y74.103
G01 F400 X56.084 Y73.887
G01 F400 X56.060 Y73.660
G01 F400 X56.084 Y73.433
G01 F400 X56.154 Y73.217
G01 F400 X56.268 Y73.019
G01 F400 X56.421 Y72.850
G01 F400 X56.605 Y72.716
G01 F400 X56.813 Y72.623
G01 F400 X57.036 Y72.576
G01 F400 X57.264 Y72.576
G01 F400 X57.487 Y72.623
G01 F400 X57.695 Y72.716
G01 F400 X57.879 Y72.850
G01 F400 X58.032 Y73.019
G01 F400 X58.146 Y73.217
G01 F400 X58.216 Y73.433
G01 F400 X58.240 Y73.660
G01 F400 X58.216 Y73.887
G01 F400 X58.146 Y74.103
G01 F400 X58.032 Y74.301
G01 F400 X57.879 Y74.470
G01 F400 X57.695 Y74.604
G01 F400 X57.487 Y74.697
G01 F400 X57.264 Y74.744
G01 F400 X57.036 Y74.744
G00 Z3.000
G00  X54.496 Y74.744
G01 F750 Z0
G01 F400 Z-0.100
G01 F400 X54.273 Y74.697
G01 F400 X54.065 Y74.604
G01 F400 X53.881 Y74.470
G01 F400 X53.728 Y74.301
G01 F400 X53.614 Y74.103
G01 F400 X53.544 Y73.887
G01 F400 X53.520 Y73.660
G01 F400 X53.544 Y73.433
G01 F400 X53.614 Y73.217
G01 F400 X53.728 Y73.019
G01 F400 X53.881 Y72.850
G01 F400 X54.065 Y72.716
G01 F400 X54.273 Y72.623
G01 F400 X54.496 Y72.576
G01 F400 X54.724 Y72.576
G01 F400 X54.947 Y72.623
G01 F400 X55.155 Y72.716
G01 F400 X55.339 Y72.850
G01 F400 X55.492 Y73.019
G01 F400 X55.606 Y73.217
G01 F400 X55.676 Y73.433
G01 F400 X55.700 Y73.660
G01 F400 X55.676 Y73.887
G01 F400 X55.606 Y74.103
G01 F400 X55.492 Y74.301
G01 F400 X55.339 Y74.470
G01 F400 X55.155 Y74.604
G01 F400 X54.947 Y74.697
G01 F400 X54.724 Y74.744
G01 F400 X54.496 Y74.744
G00 Z3.000
G00  X72.416 Y54.374
G01 F750 Z0
G01 F400 Z-0.100
G01 F400 X72.193 Y54.327
G01 F400 X71.985 Y54.234
G01 F400 X71.801 Y54.100
G01 F400 X71.648 Y53.931
G01 F400 X71.534 Y53.733
G01 F400 X71.464 Y53.517
G01 F400 X71.440 Y53.290
G01 F400 X71.464 Y53.063
G01 F400 X71.534 Y52.847
G01 F400 X71.648 Y52.649
G01 F400 X71.801 Y52.480
G01 F400 X71.985 Y52.346
G01 F400 X72.193 Y52.253
G01 F400 X72.416 Y52.206
G01 F400 X72.644 Y52.206
G01 F400 X72.867 Y52.253
G01 F400 X73.075 Y52.346
G01 F400 X73.259 Y52.480
G01 F400 X73.412 Y52.649
G01 F400 X73.526 Y52.847
G01 F400 X73.596 Y53.063
G01 F400 X73.620 Y53.290
G01 F400 X73.596 Y53.517
G01 F400 X73.526 Y53.733
G01 F400 X73.412 Y53.931
G01 F400 X73.259 Y54.100
G01 F400 X73.075 Y54.234
G01 F400 X72.867 Y54.327
G01 F400 X72.644 Y54.374
G01 F400 X72.416 Y54.374
G00 Z3.000
G00  X74.956 Y54.374
G01 F750 Z0
G01 F400 Z-0.100
G01 F400 X74.733 Y54.327
G01 F400 X74.525 Y54.234
G01 F400 X74.341 Y54.100
G01 F400 X74.188 Y53.931
G01 F400 X74.074 Y53.733
G01 F400 X74.004 Y53.517
G01 F400 X73.980 Y53.290
G01 F400 X74.004 Y53.063
G01 F400 X74.074 Y52.847
G01 F400 X74.188 Y52.649
G01 F400 X74.341 Y52.480
G01 F400 X74.525 Y52.346
G01 F400 X74.733 Y52.253
G01 F400 X74.956 Y52.206
G01 F400 X75.184 Y52.206
G01 F400 X75.407 Y52.253
G01 F400 X75.615 Y52.346
G01 F400 X75.799 Y52.480
G01 F400 X75.952 Y52.649
G01 F400 X76.066 Y52.847
G01 F400 X76.136 Y53.063
G01 F400 X76.160 Y53.290
G01 F400 X76.136 Y53.517
G01 F400 X76.066 Y53.733
G01 F400 X75.952 Y53.931
G01 F400 X75.799 Y54.100
G01 F400 X75.615 Y54.234
G01 F400 X75.407 Y54.327
G01 F400 X75.184 Y54.374
G01 F400 X74.956 Y54.374
G00 Z3.000
G00  X72.416 Y51.834
G01 F750 Z0
G01 F400 Z-0.100
G01 F400 X72.193 Y51.787
G01 F400 X71.985 Y51.694
G01 F400 X71.801 Y51.560
G01 F400 X71.648 Y51.391
G01 F400 X71.534 Y51.193
G01 F400 X71.464 Y50.977
G01 F400 X71.440 Y50.750
G01 F400 X71.464 Y50.523
G01 F400 X71.534 Y50.307
G01 F400 X71.648 Y50.109
G01 F400 X71.801 Y49.940
G01 F400 X71.985 Y49.806
G01 F400 X72.193 Y49.713
G01 F400 X72.416 Y49.666
G01 F400 X72.644 Y49.666
G01 F400 X72.867 Y49.713
G01 F400 X73.075 Y49.806
G01 F400 X73.259 Y49.940
G01 F400 X73.412 Y50.109
G01 F400 X73.526 Y50.307
G01 F400 X73.596 Y50.523
G01 F400 X73.620 Y50.750
G01 F400 X73.596 Y50.977
G01 F400 X73.526 Y51.193
G01 F400 X73.412 Y51.391
G01 F400 X73.259 Y51.560
G01 F400 X73.075 Y51.694
G01 F400 X72.867 Y51.787
G01 F400 X72.644 Y51.834
G01 F400 X72.416 Y51.834
G00 Z3.000
G00  X74.956 Y51.834
G01 F750 Z0
G01 F400 Z-0.100
G01 F400 X74.733 Y51.787
G01 F400 X74.525 Y51.694
G01 F400 X74.341 Y51.560
G01 F400 X74.188 Y51.391
G01 F400 X74.074 Y51.193
G01 F400 X74.004 Y50.977
G01 F400 X73.980 Y50.750
G01 F400 X74.004 Y50.523
G01 F400 X74.074 Y50.307
G01 F400 X74.188 Y50.109
G01 F400 X74.341 Y49.940
G01 F400 X74.525 Y49.806
G01 F400 X74.733 Y49.713
G01 F400 X74.956 Y49.666
G01 F400 X75.184 Y49.666
G01 F400 X75.407 Y49.713
G01 F400 X75.615 Y49.806
G01 F400 X75.799 Y49.940
G01 F400 X75.952 Y50.109
G01 F400 X76.066 Y50.307
G01 F400 X76.136 Y50.523
G01 F400 X76.160 Y50.750
G01 F400 X76.136 Y50.977
G01 F400 X76.066 Y51.193
G01 F400 X75.952 Y51.391
G01 F400 X75.799 Y51.560
G01 F400 X75.615 Y51.694
G01 F400 X75.407 Y51.787
G01 F400 X75.184 Y51.834
G01 F400 X74.956 Y51.834
G00 Z3.000
G00  X72.416 Y49.294
G01 F750 Z0
G01 F400 Z-0.100
G01 F400 X72.193 Y49.247
G01 F400 X71.985 Y49.154
G01 F400 X71.801 Y49.020
G01 F400 X71.648 Y48.851
G01 F400 X71.534 Y48.653
G01 F400 X71.464 Y48.437
G01 F400 X71.440 Y48.210
G01 F400 X71.464 Y47.983
G01 F400 X71.534 Y47.767
G01 F400 X71.648 Y47.569
G01 F400 X71.801 Y47.400
G01 F400 X71.985 Y47.266
G01 F400 X72.193 Y47.173
G01 F400 X72.416 Y47.126
G01 F400 X72.644 Y47.126
G01 F400 X72.867 Y47.173
G01 F400 X73.075 Y47.266
G01 F400 X73.259 Y47.400
G01 F400 X73.412 Y47.569
G01 F400 X73.526 Y47.767
G01 F400 X73.596 Y47.983
G01 F400 X73.620 Y48.210
G01 F400 X73.596 Y48.437
G01 F400 X73.526 Y48.653
G01 F400 X73.412 Y48.851
G01 F400 X73.259 Y49.020
G01 F400 X73.075 Y49.154
G01 F400 X72.867 Y49.247
G01 F400 X72.644 Y49.294
G01 F400 X72.416 Y49.294
G00 Z3.000
G00  X74.956 Y49.294
G01 F750 Z0
G01 F400 Z-0.100
G01 F400 X74.733 Y49.247
G01 F400 X74.525 Y49.154
G01 F400 X74.341 Y49.020
G01 F400 X74.188 Y48.851
G01 F400 X74.074 Y48.653
G01 F400 X74.004 Y48.437
G01 F400 X73.980 Y48.210
G01 F400 X74.004 Y47.983
G01 F400 X74.074 Y47.767
G01 F400 X74.188 Y47.569
G01 F400 X74.341 Y47.400
G01 F400 X74.525 Y47.266
G01 F400 X74.733 Y47.173
G01 F400 X74.956 Y47.126
G01 F400 X75.184 Y47.126
G01 F400 X75.407 Y47.173
G01 F400 X75.615 Y47.266
G01 F400 X75.631 Y47.277
G01 F400 X77.906 Y45.001
G01 F400 X77.905 Y18.495
G01 F400 X76.644 Y17.236
G01 F400 X76.644 Y17.534
G01 F400 X74.516 Y17.534
G01 F400 X74.516 Y15.406
G01 F400 X76.644 Y15.406
G01 F400 X76.644 Y16.671
G01 F400 X78.251 Y18.277
G01 F400 X78.291 Y18.332
G01 F400 X78.305 Y18.402
G01 F400 X78.305 Y45.098
G01 F400 X78.291 Y45.168
G01 F400 X78.251 Y45.223
G01 F400 X75.929 Y47.544
G01 F400 X75.952 Y47.569
G01 F400 X76.066 Y47.767
G01 F400 X76.136 Y47.983
G01 F400 X76.160 Y48.210
G01 F400 X76.136 Y48.437
G01 F400 X76.066 Y48.653
G01 F400 X75.952 Y48.851
G01 F400 X75.799 Y49.020
G01 F400 X75.615 Y49.154
G01 F400 X75.407 Y49.247
G01 F400 X75.184 Y49.294
G01 F400 X74.956 Y49.294
G00 Z3.000
G00  X64.656 Y26.484
G01 F750 Z0
G01 F400 Z-0.100
G01 F400 X64.433 Y26.437
G01 F400 X64.225 Y26.344
G01 F400 X64.041 Y26.210
G01 F400 X63.888 Y26.041
G01 F400 X63.774 Y25.843
G01 F400 X63.704 Y25.627
G01 F400 X63.680 Y25.400
G01 F400 X63.704 Y25.173
G01 F400 X63.774 Y24.957
G01 F400 X63.888 Y24.759
G01 F400 X64.041 Y24.590
G01 F400 X64.225 Y24.456
G01 F400 X64.433 Y24.363
G01 F400 X64.656 Y24.316
G01 F400 X64.884 Y24.316
G01 F400 X65.107 Y24.363
G01 F400 X65.315 Y24.456
G01 F400 X65.499 Y24.590
G01 F400 X65.652 Y24.759
G01 F400 X65.766 Y24.957
G01 F400 X65.836 Y25.173
G01 F400 X65.860 Y25.400
G01 F400 X65.836 Y25.627
G01 F400 X65.766 Y25.843
G01 F400 X65.652 Y26.041
G01 F400 X65.499 Y26.210
G01 F400 X65.315 Y26.344
G01 F400 X65.107 Y26.437
G01 F400 X64.884 Y26.484
G01 F400 X64.656 Y26.484
G00 Z3.000
G00  X67.196 Y26.484
G01 F750 Z0
G01 F400 Z-0.100
G01 F400 X66.973 Y26.437
G01 F400 X66.765 Y26.344
G01 F400 X66.581 Y26.210
G01 F400 X66.428 Y26.041
G01 F400 X66.314 Y25.843
G01 F400 X66.244 Y25.627
G01 F400 X66.220 Y25.400
G01 F400 X66.244 Y25.173
G01 F400 X66.314 Y24.957
G01 F400 X66.428 Y24.759
G01 F400 X66.581 Y24.590
G01 F400 X66.765 Y24.456
G01 F400 X66.973 Y24.363
G01 F400 X67.196 Y24.316
G01 F400 X67.424 Y24.316
G01 F400 X67.647 Y24.363
G01 F400 X67.855 Y24.456
G01 F400 X68.039 Y24.590
G01 F400 X68.192 Y24.759
G01 F400 X68.306 Y24.957
G01 F400 X68.376 Y25.173
G01 F400 X68.400 Y25.400
G01 F400 X68.376 Y25.627
G01 F400 X68.306 Y25.843
G01 F400 X68.192 Y26.041
G01 F400 X68.039 Y26.210
G01 F400 X67.855 Y26.344
G01 F400 X67.647 Y26.437
G01 F400 X67.424 Y26.484
G01 F400 X67.196 Y26.484
G00 Z3.000
G00  X59.576 Y26.484
G01 F750 Z0
G01 F400 Z-0.100
G01 F400 X59.353 Y26.437
G01 F400 X59.145 Y26.344
G01 F400 X58.961 Y26.210
G01 F400 X58.808 Y26.041
G01 F400 X58.694 Y25.843
G01 F400 X58.624 Y25.627
G01 F400 X58.600 Y25.400
G01 F400 X58.624 Y25.173
G01 F400 X58.694 Y24.957
G01 F400 X58.808 Y24.759
G01 F400 X58.961 Y24.590
G01 F400 X59.145 Y24.456
G01 F400 X59.353 Y24.363
G01 F400 X59.576 Y24.316
G01 F400 X59.804 Y24.316
G01 F400 X60.027 Y24.363
G01 F400 X60.235 Y24.456
G01 F400 X60.419 Y24.590
G01 F400 X60.572 Y24.759
G01 F400 X60.686 Y24.957
G01 F400 X60.756 Y25.173
G01 F400 X60.780 Y25.400
G01 F400 X60.756 Y25.627
G01 F400 X60.686 Y25.843
G01 F400 X60.572 Y26.041
G01 F400 X60.419 Y26.210
G01 F400 X60.235 Y26.344
G01 F400 X60.027 Y26.437
G01 F400 X59.804 Y26.484
G01 F400 X59.576 Y26.484
G00 Z3.000
G00  X62.116 Y26.484
G01 F750 Z0
G01 F400 Z-0.100
G01 F400 X61.893 Y26.437
G01 F400 X61.685 Y26.344
G01 F400 X61.501 Y26.210
G01 F400 X61.348 Y26.041
G01 F400 X61.234 Y25.843
G01 F400 X61.164 Y25.627
G01 F400 X61.140 Y25.400
G01 F400 X61.164 Y25.173
G01 F400 X61.234 Y24.957
G01 F400 X61.348 Y24.759
G01 F400 X61.501 Y24.590
G01 F400 X61.685 Y24.456
G01 F400 X61.893 Y24.363
G01 F400 X62.031 Y24.334
G01 F400 X62.030 Y13.950
G01 F400 X62.061 Y13.855
G01 F400 X62.129 Y13.794
G01 F400 X62.202 Y13.770
G01 F400 X74.516 Y13.770
G01 F400 X74.516 Y12.906
G01 F400 X76.644 Y12.906
G01 F400 X76.644 Y15.034
G01 F400 X74.516 Y15.034
G01 F400 X74.516 Y14.170
G01 F400 X62.430 Y14.170
G01 F400 X62.430 Y24.337
G01 F400 X62.566 Y24.363
G01 F400 X62.775 Y24.456
G01 F400 X62.959 Y24.590
G01 F400 X63.112 Y24.759
G01 F400 X63.226 Y24.957
G01 F400 X63.296 Y25.173
G01 F400 X63.320 Y25.400
G01 F400 X63.296 Y25.627
G01 F400 X63.226 Y25.843
G01 F400 X63.112 Y26.041
G01 F400 X62.959 Y26.210
G01 F400 X62.775 Y26.344
G01 F400 X62.567 Y26.437
G01 F400 X62.344 Y26.484
G01 F400 X62.116 Y26.484
G00 Z3.000
G00  X69.736 Y26.484
G01 F750 Z0
G01 F400 Z-0.100
G01 F400 X69.513 Y26.437
G01 F400 X69.305 Y26.344
G01 F400 X69.121 Y26.210
G01 F400 X68.968 Y26.041
G01 F400 X68.854 Y25.843
G01 F400 X68.784 Y25.627
G01 F400 X68.760 Y25.400
G01 F400 X68.784 Y25.173
G01 F400 X68.854 Y24.957
G01 F400 X68.968 Y24.759
G01 F400 X69.121 Y24.590
G01 F400 X69.305 Y24.456
G01 F400 X69.513 Y24.363
G01 F400 X69.736 Y24.316
G01 F400 X69.964 Y24.316
G01 F400 X70.187 Y24.363
G01 F400 X70.395 Y24.456
G01 F400 X70.579 Y24.590
G01 F400 X70.732 Y24.759
G01 F400 X70.846 Y24.957
G01 F400 X70.916 Y25.173
G01 F400 X70.940 Y25.400
G01 F400 X70.916 Y25.627
G01 F400 X70.846 Y25.843
G01 F400 X70.732 Y26.041
G01 F400 X70.579 Y26.210
G01 F400 X70.395 Y26.344
G01 F400 X70.187 Y26.437
G01 F400 X69.964 Y26.484
G01 F400 X69.736 Y26.484
G00 Z3.000
G00  X72.276 Y26.484
G01 F750 Z0
G01 F400 Z-0.100
G01 F400 X72.053 Y26.437
G01 F400 X71.845 Y26.344
G01 F400 X71.661 Y26.210
G01 F400 X71.508 Y26.041
G01 F400 X71.394 Y25.843
G01 F400 X71.324 Y25.627
G01 F400 X71.300 Y25.400
G01 F400 X71.324 Y25.173
G01 F400 X71.394 Y24.957
G01 F400 X71.508 Y24.759
G01 F400 X71.661 Y24.590
G01 F400 X71.845 Y24.456
G01 F400 X72.053 Y24.363
G01 F400 X72.276 Y24.316
G01 F400 X72.504 Y24.316
G01 F400 X72.727 Y24.363
G01 F400 X72.935 Y24.456
G01 F400 X73.119 Y24.590
G01 F400 X73.272 Y24.759
G01 F400 X73.386 Y24.957
G01 F400 X73.456 Y25.173
G01 F400 X73.480 Y25.400
G01 F400 X73.456 Y25.627
G01 F400 X73.386 Y25.843
G01 F400 X73.272 Y26.041
G01 F400 X73.119 Y26.210
G01 F400 X72.935 Y26.344
G01 F400 X72.727 Y26.437
G01 F400 X72.504 Y26.484
G01 F400 X72.276 Y26.484
G00 Z3.000
G00  X41.796 Y26.484
G01 F750 Z0
G01 F400 Z-0.100
G01 F400 X41.573 Y26.437
G01 F400 X41.365 Y26.344
G01 F400 X41.181 Y26.210
G01 F400 X41.028 Y26.041
G01 F400 X40.914 Y25.843
G01 F400 X40.844 Y25.627
G01 F400 X40.820 Y25.400
G01 F400 X40.844 Y25.173
G01 F400 X40.914 Y24.957
G01 F400 X41.028 Y24.759
G01 F400 X41.181 Y24.590
G01 F400 X41.365 Y24.456
G01 F400 X41.573 Y24.363
G01 F400 X41.796 Y24.316
G01 F400 X42.024 Y24.316
G01 F400 X42.247 Y24.363
G01 F400 X42.455 Y24.456
G01 F400 X42.639 Y24.590
G01 F400 X42.792 Y24.759
G01 F400 X42.906 Y24.957
G01 F400 X42.976 Y25.173
G01 F400 X43.000 Y25.400
G01 F400 X42.976 Y25.627
G01 F400 X42.906 Y25.843
G01 F400 X42.792 Y26.041
G01 F400 X42.639 Y26.210
G01 F400 X42.455 Y26.344
G01 F400 X42.247 Y26.437
G01 F400 X42.024 Y26.484
G01 F400 X41.796 Y26.484
G00 Z3.000
G00  X44.336 Y26.484
G01 F750 Z0
G01 F400 Z-0.100
G01 F400 X44.113 Y26.437
G01 F400 X43.905 Y26.344
G01 F400 X43.721 Y26.210
G01 F400 X43.568 Y26.041
G01 F400 X43.454 Y25.843
G01 F400 X43.384 Y25.627
G01 F400 X43.360 Y25.400
G01 F400 X43.384 Y25.173
G01 F400 X43.454 Y24.957
G01 F400 X43.568 Y24.759
G01 F400 X43.721 Y24.590
G01 F400 X43.905 Y24.456
G01 F400 X44.113 Y24.363
G01 F400 X44.336 Y24.316
G01 F400 X44.564 Y24.316
G01 F400 X44.787 Y24.363
G01 F400 X44.995 Y24.456
G01 F400 X45.179 Y24.590
G01 F400 X45.332 Y24.759
G01 F400 X45.446 Y24.957
G01 F400 X45.516 Y25.173
G01 F400 X45.540 Y25.400
G01 F400 X45.516 Y25.627
G01 F400 X45.446 Y25.843
G01 F400 X45.332 Y26.041
G01 F400 X45.179 Y26.210
G01 F400 X44.995 Y26.344
G01 F400 X44.787 Y26.437
G01 F400 X44.564 Y26.484
G01 F400 X44.336 Y26.484
G00 Z3.000
G00  X36.716 Y26.484
G01 F750 Z0
G01 F400 Z-0.100
G01 F400 X36.493 Y26.437
G01 F400 X36.285 Y26.344
G01 F400 X36.101 Y26.210
G01 F400 X35.948 Y26.041
G01 F400 X35.834 Y25.843
G01 F400 X35.764 Y25.627
G01 F400 X35.740 Y25.400
G01 F400 X35.764 Y25.173
G01 F400 X35.834 Y24.957
G01 F400 X35.948 Y24.759
G01 F400 X36.101 Y24.590
G01 F400 X36.285 Y24.456
G01 F400 X36.493 Y24.363
G01 F400 X36.716 Y24.316
G01 F400 X36.944 Y24.316
G01 F400 X37.167 Y24.363
G01 F400 X37.375 Y24.456
G01 F400 X37.559 Y24.590
G01 F400 X37.712 Y24.759
G01 F400 X37.826 Y24.957
G01 F400 X37.896 Y25.173
G01 F400 X37.920 Y25.400
G01 F400 X37.896 Y25.627
G01 F400 X37.826 Y25.843
G01 F400 X37.712 Y26.041
G01 F400 X37.559 Y26.210
G01 F400 X37.375 Y26.344
G01 F400 X37.167 Y26.437
G01 F400 X36.944 Y26.484
G01 F400 X36.716 Y26.484
G00 Z3.000
G00  X39.256 Y26.484
G01 F750 Z0
G01 F400 Z-0.100
G01 F400 X39.033 Y26.437
G01 F400 X38.825 Y26.344
G01 F400 X38.641 Y26.210
G01 F400 X38.488 Y26.041
G01 F400 X38.374 Y25.843
G01 F400 X38.304 Y25.627
G01 F400 X38.280 Y25.400
G01 F400 X38.304 Y25.173
G01 F400 X38.374 Y24.957
G01 F400 X38.488 Y24.759
G01 F400 X38.641 Y24.590
G01 F400 X38.825 Y24.456
G01 F400 X39.033 Y24.363
G01 F400 X39.256 Y24.316
G01 F400 X39.484 Y24.316
G01 F400 X39.707 Y24.363
G01 F400 X39.915 Y24.456
G01 F400 X40.099 Y24.590
G01 F400 X40.252 Y24.759
G01 F400 X40.366 Y24.957
G01 F400 X40.436 Y25.173
G01 F400 X40.460 Y25.400
G01 F400 X40.436 Y25.627
G01 F400 X40.366 Y25.843
G01 F400 X40.252 Y26.041
G01 F400 X40.099 Y26.210
G01 F400 X39.915 Y26.344
G01 F400 X39.707 Y26.437
G01 F400 X39.484 Y26.484
G01 F400 X39.256 Y26.484
G00 Z3.000
G00  X51.956 Y26.484
G01 F750 Z0
G01 F400 Z-0.100
G01 F400 X51.733 Y26.437
G01 F400 X51.525 Y26.344
G01 F400 X51.341 Y26.210
G01 F400 X51.188 Y26.041
G01 F400 X51.074 Y25.843
G01 F400 X51.004 Y25.627
G01 F400 X50.980 Y25.400
G01 F400 X51.004 Y25.173
G01 F400 X51.074 Y24.957
G01 F400 X51.188 Y24.759
G01 F400 X51.341 Y24.590
G01 F400 X51.525 Y24.456
G01 F400 X51.733 Y24.363
G01 F400 X51.956 Y24.316
G01 F400 X52.184 Y24.316
G01 F400 X52.407 Y24.363
G01 F400 X52.615 Y24.456
G01 F400 X52.799 Y24.590
G01 F400 X52.952 Y24.759
G01 F400 X53.066 Y24.957
G01 F400 X53.136 Y25.173
G01 F400 X53.160 Y25.400
G01 F400 X53.136 Y25.627
G01 F400 X53.066 Y25.843
G01 F400 X52.952 Y26.041
G01 F400 X52.799 Y26.210
G01 F400 X52.615 Y26.344
G01 F400 X52.407 Y26.437
G01 F400 X52.184 Y26.484
G01 F400 X51.956 Y26.484
G00 Z3.000
G00  X54.496 Y26.484
G01 F750 Z0
G01 F400 Z-0.100
G01 F400 X54.273 Y26.437
G01 F400 X54.065 Y26.344
G01 F400 X53.881 Y26.210
G01 F400 X53.728 Y26.041
G01 F400 X53.614 Y25.843
G01 F400 X53.544 Y25.627
G01 F400 X53.520 Y25.400
G01 F400 X53.544 Y25.173
G01 F400 X53.614 Y24.957
G01 F400 X53.728 Y24.759
G01 F400 X53.881 Y24.590
G01 F400 X54.065 Y24.456
G01 F400 X54.273 Y24.363
G01 F400 X54.496 Y24.316
G01 F400 X54.724 Y24.316
G01 F400 X54.947 Y24.363
G01 F400 X55.155 Y24.456
G01 F400 X55.339 Y24.590
G01 F400 X55.492 Y24.759
G01 F400 X55.606 Y24.957
G01 F400 X55.676 Y25.173
G01 F400 X55.700 Y25.400
G01 F400 X55.676 Y25.627
G01 F400 X55.606 Y25.843
G01 F400 X55.492 Y26.041
G01 F400 X55.339 Y26.210
G01 F400 X55.155 Y26.344
G01 F400 X54.947 Y26.437
G01 F400 X54.724 Y26.484
G01 F400 X54.496 Y26.484
G00 Z3.000
G00  X46.876 Y26.484
G01 F750 Z0
G01 F400 Z-0.100
G01 F400 X46.653 Y26.437
G01 F400 X46.445 Y26.344
G01 F400 X46.261 Y26.210
G01 F400 X46.108 Y26.041
G01 F400 X45.994 Y25.843
G01 F400 X45.924 Y25.627
G01 F400 X45.900 Y25.400
G01 F400 X45.924 Y25.173
G01 F400 X45.994 Y24.957
G01 F400 X46.108 Y24.759
G01 F400 X46.261 Y24.590
G01 F400 X46.445 Y24.456
G01 F400 X46.653 Y24.363
G01 F400 X46.791 Y24.334
G01 F400 X46.790 Y12.045
G01 F400 X46.821 Y11.950
G01 F400 X46.889 Y11.889
G01 F400 X46.962 Y11.865
G01 F400 X74.516 Y11.865
G01 F400 X74.516 Y10.406
G01 F400 X76.644 Y10.406
G01 F400 X76.644 Y12.534
G01 F400 X74.516 Y12.534
G01 F400 X74.516 Y12.265
G01 F400 X47.190 Y12.265
G01 F400 X47.190 Y24.337
G01 F400 X47.326 Y24.363
G01 F400 X47.535 Y24.456
G01 F400 X47.719 Y24.590
G01 F400 X47.872 Y24.759
G01 F400 X47.986 Y24.957
G01 F400 X48.056 Y25.173
G01 F400 X48.080 Y25.400
G01 F400 X48.056 Y25.627
G01 F400 X47.986 Y25.843
G01 F400 X47.872 Y26.041
G01 F400 X47.719 Y26.210
G01 F400 X47.535 Y26.344
G01 F400 X47.327 Y26.437
G01 F400 X47.104 Y26.484
G01 F400 X46.876 Y26.484
G00 Z3.000
G00  X49.416 Y26.484
G01 F750 Z0
G01 F400 Z-0.100
G01 F400 X49.193 Y26.437
G01 F400 X48.985 Y26.344
G01 F400 X48.801 Y26.210
G01 F400 X48.648 Y26.041
G01 F400 X48.534 Y25.843
G01 F400 X48.464 Y25.627
G01 F400 X48.440 Y25.400
G01 F400 X48.464 Y25.173
G01 F400 X48.534 Y24.957
G01 F400 X48.648 Y24.759
G01 F400 X48.801 Y24.590
G01 F400 X48.985 Y24.456
G01 F400 X49.193 Y24.363
G01 F400 X49.416 Y24.316
G01 F400 X49.644 Y24.316
G01 F400 X49.867 Y24.363
G01 F400 X50.075 Y24.456
G01 F400 X50.259 Y24.590
G01 F400 X50.412 Y24.759
G01 F400 X50.526 Y24.957
G01 F400 X50.596 Y25.173
G01 F400 X50.620 Y25.400
G01 F400 X50.596 Y25.627
G01 F400 X50.526 Y25.843
G01 F400 X50.412 Y26.041
G01 F400 X50.259 Y26.210
G01 F400 X50.075 Y26.344
G01 F400 X49.867 Y26.437
G01 F400 X49.644 Y26.484
G01 F400 X49.416 Y26.484
G00 Z3.000
G00  X68.335 Y20.111
G01 F750 Z0
G01 F400 Z-0.100
G01 F400 X67.176 Y19.428
G01 F400 X66.839 Y18.125
G01 F400 X67.522 Y16.966
G01 F400 X68.825 Y16.629
G01 F400 X69.984 Y17.312
G01 F400 X70.321 Y18.615
G01 F400 X69.638 Y19.774
G01 F400 X68.335 Y20.111
G00 Z3.000
G00  X68.335 Y11.311
G01 F750 Z0
G01 F400 Z-0.100
G01 F400 X67.176 Y10.628
G01 F400 X66.839 Y9.325
G01 F400 X67.522 Y8.166
G01 F400 X68.825 Y7.829
G01 F400 X69.984 Y8.512
G01 F400 X70.321 Y9.815
G01 F400 X69.638 Y10.974
G01 F400 X68.335 Y11.311
G00 Z3.000
G00  X45.585 Y85.102
G01 F750 Z0
G01 F400 Z-0.100
G01 F400 X45.322 Y85.046
G01 F400 X45.075 Y84.937
G01 F400 X44.857 Y84.778
G01 F400 X44.677 Y84.578
G01 F400 X44.542 Y84.344
G01 F400 X44.459 Y84.088
G01 F400 X44.431 Y83.820
G01 F400 X44.459 Y83.552
G01 F400 X44.542 Y83.296
G01 F400 X44.563 Y83.260
G01 F400 X42.851 Y81.550
G01 F400 X42.758 Y81.389
G01 F400 X42.757 Y74.961
G01 F400 X42.520 Y74.910
G01 F400 X42.269 Y74.799
G01 F400 X42.046 Y74.637
G01 F400 X41.863 Y74.433
G01 F400 X41.725 Y74.195
G01 F400 X41.656 Y73.982
G01 F400 X41.587 Y74.195
G01 F400 X41.450 Y74.433
G01 F400 X41.266 Y74.637
G01 F400 X41.043 Y74.799
G01 F400 X40.792 Y74.910
G01 F400 X40.523 Y74.967
G01 F400 X40.249 Y74.967
G01 F400 X39.980 Y74.910
G01 F400 X39.729 Y74.799
G01 F400 X39.506 Y74.637
G01 F400 X39.323 Y74.433
G01 F400 X39.185 Y74.195
G01 F400 X39.116 Y73.982
G01 F400 X39.047 Y74.195
G01 F400 X38.910 Y74.433
G01 F400 X38.726 Y74.637
G01 F400 X38.503 Y74.799
G01 F400 X38.252 Y74.910
G01 F400 X37.983 Y74.967
G01 F400 X37.709 Y74.967
G01 F400 X37.440 Y74.910
G01 F400 X37.189 Y74.799
G01 F400 X36.966 Y74.637
G01 F400 X36.782 Y74.433
G01 F400 X36.645 Y74.195
G01 F400 X36.576 Y73.982
G01 F400 X36.507 Y74.195
G01 F400 X36.370 Y74.433
G01 F400 X36.186 Y74.637
G01 F400 X35.963 Y74.799
G01 F400 X35.712 Y74.910
G01 F400 X35.443 Y74.967
G01 F400 X35.354 Y74.967
G01 F400 X35.349 Y76.872
G01 F400 X35.319 Y77.011
G01 F400 X35.241 Y77.118
G01 F400 X28.884 Y83.475
G01 F400 X28.928 Y83.610
G01 F400 X28.950 Y83.820
G01 F400 X28.928 Y84.030
G01 F400 X28.863 Y84.231
G01 F400 X28.757 Y84.413
G01 F400 X28.616 Y84.570
G01 F400 X28.445 Y84.695
G01 F400 X28.252 Y84.780
G01 F400 X28.046 Y84.824
G01 F400 X27.834 Y84.824
G01 F400 X27.628 Y84.780
G01 F400 X27.435 Y84.695
G01 F400 X27.264 Y84.570
G01 F400 X27.123 Y84.413
G01 F400 X27.018 Y84.231
G01 F400 X26.952 Y84.030
G01 F400 X26.930 Y83.820
G01 F400 X26.952 Y83.610
G01 F400 X27.018 Y83.409
G01 F400 X27.123 Y83.227
G01 F400 X27.264 Y83.070
G01 F400 X27.435 Y82.946
G01 F400 X27.628 Y82.860
G01 F400 X27.834 Y82.816
G01 F400 X28.046 Y82.816
G01 F400 X28.252 Y82.860
G01 F400 X28.287 Y82.875
G01 F400 X34.503 Y76.658
G01 F400 X34.502 Y74.692
G01 F400 X34.426 Y74.637
G01 F400 X34.242 Y74.433
G01 F400 X34.105 Y74.195
G01 F400 X34.036 Y73.982
G01 F400 X33.967 Y74.195
G01 F400 X33.830 Y74.433
G01 F400 X33.646 Y74.637
G01 F400 X33.423 Y74.799
G01 F400 X33.172 Y74.910
G01 F400 X32.903 Y74.967
G01 F400 X32.629 Y74.967
G01 F400 X32.360 Y74.910
G01 F400 X32.109 Y74.799
G01 F400 X31.886 Y74.637
G01 F400 X31.703 Y74.433
G01 F400 X31.565 Y74.195
G01 F400 X31.496 Y73.982
G01 F400 X31.427 Y74.195
G01 F400 X31.290 Y74.433
G01 F400 X31.106 Y74.637
G01 F400 X30.883 Y74.799
G01 F400 X30.632 Y74.910
G01 F400 X30.363 Y74.967
G01 F400 X30.089 Y74.967
G01 F400 X29.820 Y74.910
G01 F400 X29.569 Y74.799
G01 F400 X29.346 Y74.637
G01 F400 X29.163 Y74.433
G01 F400 X29.025 Y74.195
G01 F400 X28.956 Y73.982
G01 F400 X28.887 Y74.195
G01 F400 X28.750 Y74.433
G01 F400 X28.566 Y74.637
G01 F400 X28.343 Y74.799
G01 F400 X28.092 Y74.910
G01 F400 X27.823 Y74.967
G01 F400 X27.549 Y74.967
G01 F400 X27.280 Y74.910
G01 F400 X27.029 Y74.799
G01 F400 X26.806 Y74.637
G01 F400 X26.623 Y74.433
G01 F400 X26.485 Y74.195
G01 F400 X26.400 Y73.933
G01 F400 X26.371 Y73.660
G01 F400 X26.400 Y73.387
G01 F400 X26.485 Y73.125
G01 F400 X26.623 Y72.887
G01 F400 X26.806 Y72.683
G01 F400 X27.029 Y72.522
G01 F400 X27.280 Y72.410
G01 F400 X27.549 Y72.353
G01 F400 X27.823 Y72.353
G01 F400 X28.092 Y72.410
G01 F400 X28.343 Y72.522
G01 F400 X28.566 Y72.683
G01 F400 X28.750 Y72.887
G01 F400 X28.887 Y73.125
G01 F400 X28.956 Y73.338
G01 F400 X29.025 Y73.125
G01 F400 X29.163 Y72.887
G01 F400 X29.346 Y72.683
G01 F400 X29.569 Y72.522
G01 F400 X29.820 Y72.410
G01 F400 X30.089 Y72.353
G01 F400 X30.363 Y72.353
G01 F400 X30.632 Y72.410
G01 F400 X30.883 Y72.522
G01 F400 X31.106 Y72.683
G01 F400 X31.290 Y72.887
G01 F400 X31.427 Y73.125
G01 F400 X31.496 Y73.338
G01 F400 X31.565 Y73.125
G01 F400 X31.703 Y72.887
G01 F400 X31.886 Y72.683
G01 F400 X32.109 Y72.522
G01 F400 X32.360 Y72.410
G01 F400 X32.629 Y72.353
G01 F400 X32.903 Y72.353
G01 F400 X33.172 Y72.410
G01 F400 X33.423 Y72.522
G01 F400 X33.646 Y72.683
G01 F400 X33.830 Y72.887
G01 F400 X33.967 Y73.125
G01 F400 X34.036 Y73.338
G01 F400 X34.105 Y73.125
G01 F400 X34.242 Y72.887
G01 F400 X34.426 Y72.683
G01 F400 X34.649 Y72.522
G01 F400 X34.900 Y72.410
G01 F400 X35.169 Y72.353
G01 F400 X35.443 Y72.353
G01 F400 X35.712 Y72.410
G01 F400 X35.963 Y72.522
G01 F400 X36.186 Y72.683
G01 F400 X36.370 Y72.887
G01 F400 X36.507 Y73.125
G01 F400 X36.576 Y73.338
G01 F400 X36.645 Y73.125
G01 F400 X36.782 Y72.887
G01 F400 X36.966 Y72.683
G01 F400 X37.189 Y72.522
G01 F400 X37.440 Y72.410
G01 F400 X37.709 Y72.353
G01 F400 X37.983 Y72.353
G01 F400 X38.252 Y72.410
G01 F400 X38.503 Y72.522
G01 F400 X38.726 Y72.683
G01 F400 X38.910 Y72.887
G01 F400 X39.047 Y73.125
G01 F400 X39.116 Y73.338
G01 F400 X39.185 Y73.125
G01 F400 X39.323 Y72.887
G01 F400 X39.506 Y72.683
G01 F400 X39.729 Y72.522
G01 F400 X39.980 Y72.410
G01 F400 X40.249 Y72.353
G01 F400 X40.523 Y72.353
G01 F400 X40.792 Y72.410
G01 F400 X41.043 Y72.522
G01 F400 X41.266 Y72.683
G01 F400 X41.450 Y72.887
G01 F400 X41.587 Y73.125
G01 F400 X41.656 Y73.338
G01 F400 X41.725 Y73.125
G01 F400 X41.863 Y72.887
G01 F400 X42.046 Y72.683
G01 F400 X42.269 Y72.522
G01 F400 X42.520 Y72.410
G01 F400 X42.789 Y72.353
G01 F400 X43.063 Y72.353
G01 F400 X43.332 Y72.410
G01 F400 X43.583 Y72.522
G01 F400 X43.806 Y72.683
G01 F400 X43.989 Y72.887
G01 F400 X44.127 Y73.125
G01 F400 X44.196 Y73.338
G01 F400 X44.265 Y73.125
G01 F400 X44.403 Y72.887
G01 F400 X44.586 Y72.683
G01 F400 X44.809 Y72.522
G01 F400 X45.060 Y72.410
G01 F400 X45.329 Y72.353
G01 F400 X45.603 Y72.353
G01 F400 X45.872 Y72.410
G01 F400 X46.123 Y72.522
G01 F400 X46.346 Y72.683
G01 F400 X46.529 Y72.887
G01 F400 X46.667 Y73.125
G01 F400 X46.736 Y73.338
G01 F400 X46.805 Y73.125
G01 F400 X46.943 Y72.887
G01 F400 X47.126 Y72.683
G01 F400 X47.349 Y72.522
G01 F400 X47.600 Y72.410
G01 F400 X47.869 Y72.353
G01 F400 X48.143 Y72.353
G01 F400 X48.412 Y72.410
G01 F400 X48.663 Y72.522
G01 F400 X48.886 Y72.683
G01 F400 X49.070 Y72.887
G01 F400 X49.207 Y73.125
G01 F400 X49.276 Y73.338
G01 F400 X49.345 Y73.125
G01 F400 X49.483 Y72.887
G01 F400 X49.666 Y72.683
G01 F400 X49.889 Y72.522
G01 F400 X50.140 Y72.410
G01 F400 X50.409 Y72.353
G01 F400 X50.683 Y72.353
G01 F400 X50.952 Y72.410
G01 F400 X51.203 Y72.522
G01 F400 X51.426 Y72.683
G01 F400 X51.610 Y72.887
G01 F400 X51.747 Y73.125
G01 F400 X51.832 Y73.387
G01 F400 X51.861 Y73.660
G01 F400 X51.832 Y73.933
G01 F400 X51.747 Y74.195
G01 F400 X51.610 Y74.433
G01 F400 X51.426 Y74.637
G01 F400 X51.203 Y74.799
G01 F400 X50.952 Y74.910
G01 F400 X50.683 Y74.967
G01 F400 X50.409 Y74.967
G01 F400 X50.140 Y74.910
G01 F400 X49.889 Y74.799
G01 F400 X49.666 Y74.637
G01 F400 X49.483 Y74.433
G01 F400 X49.345 Y74.195
G01 F400 X49.276 Y73.982
G01 F400 X49.207 Y74.195
G01 F400 X49.070 Y74.433
G01 F400 X48.886 Y74.637
G01 F400 X48.663 Y74.799
G01 F400 X48.412 Y74.910
G01 F400 X48.143 Y74.967
G01 F400 X47.869 Y74.967
G01 F400 X47.600 Y74.910
G01 F400 X47.349 Y74.799
G01 F400 X47.126 Y74.637
G01 F400 X46.943 Y74.433
G01 F400 X46.805 Y74.195
G01 F400 X46.736 Y73.982
G01 F400 X46.667 Y74.195
G01 F400 X46.529 Y74.433
G01 F400 X46.346 Y74.637
G01 F400 X46.123 Y74.799
G01 F400 X45.872 Y74.910
G01 F400 X45.603 Y74.967
G01 F400 X45.329 Y74.967
G01 F400 X45.060 Y74.910
G01 F400 X44.809 Y74.799
G01 F400 X44.586 Y74.637
G01 F400 X44.403 Y74.433
G01 F400 X44.265 Y74.195
G01 F400 X44.196 Y73.982
G01 F400 X44.127 Y74.195
G01 F400 X43.989 Y74.433
G01 F400 X43.806 Y74.637
G01 F400 X43.602 Y74.785
G01 F400 X43.604 Y81.105
G01 F400 X45.163 Y82.664
G01 F400 X45.322 Y82.594
G01 F400 X45.585 Y82.538
G01 F400 X45.855 Y82.538
G01 F400 X46.118 Y82.594
G01 F400 X46.365 Y82.704
G01 F400 X46.583 Y82.862
G01 F400 X46.763 Y83.062
G01 F400 X46.898 Y83.296
G01 F400 X46.981 Y83.552
G01 F400 X47.009 Y83.820
G01 F400 X46.981 Y84.088
G01 F400 X46.898 Y84.344
G01 F400 X46.763 Y84.578
G01 F400 X46.583 Y84.778
G01 F400 X46.365 Y84.937
G01 F400 X46.118 Y85.046
G01 F400 X45.855 Y85.102
G01 F400 X45.585 Y85.102
G00 Z3.000
G00  X37.965 Y85.102
G01 F750 Z0
G01 F400 Z-0.100
G01 F400 X37.702 Y85.046
G01 F400 X37.455 Y84.937
G01 F400 X37.237 Y84.778
G01 F400 X37.057 Y84.578
G01 F400 X36.922 Y84.344
G01 F400 X36.890 Y84.243
G01 F400 X31.395 Y84.243
G01 F400 X31.297 Y84.413
G01 F400 X31.156 Y84.570
G01 F400 X30.985 Y84.695
G01 F400 X30.792 Y84.780
G01 F400 X30.586 Y84.824
G01 F400 X30.374 Y84.824
G01 F400 X30.168 Y84.780
G01 F400 X29.975 Y84.695
G01 F400 X29.804 Y84.570
G01 F400 X29.663 Y84.413
G01 F400 X29.558 Y84.231
G01 F400 X29.492 Y84.030
G01 F400 X29.470 Y83.820
G01 F400 X29.492 Y83.610
G01 F400 X29.558 Y83.409
G01 F400 X29.663 Y83.227
G01 F400 X29.804 Y83.070
G01 F400 X29.975 Y82.946
G01 F400 X30.168 Y82.860
G01 F400 X30.374 Y82.816
G01 F400 X30.586 Y82.816
G01 F400 X30.792 Y82.860
G01 F400 X30.985 Y82.946
G01 F400 X31.156 Y83.070
G01 F400 X31.297 Y83.227
G01 F400 X31.395 Y83.397
G01 F400 X36.890 Y83.397
G01 F400 X36.922 Y83.296
G01 F400 X37.057 Y83.062
G01 F400 X37.237 Y82.862
G01 F400 X37.455 Y82.704
G01 F400 X37.702 Y82.594
G01 F400 X37.965 Y82.538
G01 F400 X38.235 Y82.538
G01 F400 X38.498 Y82.594
G01 F400 X38.745 Y82.704
G01 F400 X38.963 Y82.862
G01 F400 X39.143 Y83.062
G01 F400 X39.278 Y83.296
G01 F400 X39.361 Y83.552
G01 F400 X39.389 Y83.820
G01 F400 X39.361 Y84.088
G01 F400 X39.278 Y84.344
G01 F400 X39.143 Y84.578
G01 F400 X38.963 Y84.778
G01 F400 X38.745 Y84.937
G01 F400 X38.498 Y85.046
G01 F400 X38.235 Y85.102
G01 F400 X37.965 Y85.102
G00 Z3.000
G00  X54.473 Y74.967
G01 F750 Z0
G01 F400 Z-0.100
G01 F400 X54.204 Y74.910
G01 F400 X53.953 Y74.799
G01 F400 X53.730 Y74.637
G01 F400 X53.547 Y74.433
G01 F400 X53.409 Y74.195
G01 F400 X53.324 Y73.933
G01 F400 X53.295 Y73.660
G01 F400 X53.324 Y73.387
G01 F400 X53.409 Y73.125
G01 F400 X53.547 Y72.887
G01 F400 X53.730 Y72.683
G01 F400 X53.953 Y72.522
G01 F400 X54.204 Y72.410
G01 F400 X54.473 Y72.353
G01 F400 X54.747 Y72.353
G01 F400 X55.016 Y72.410
G01 F400 X55.267 Y72.522
G01 F400 X55.490 Y72.683
G01 F400 X55.674 Y72.887
G01 F400 X55.811 Y73.125
G01 F400 X55.880 Y73.338
G01 F400 X55.949 Y73.125
G01 F400 X56.087 Y72.887
G01 F400 X56.270 Y72.683
G01 F400 X56.493 Y72.522
G01 F400 X56.744 Y72.410
G01 F400 X57.013 Y72.353
G01 F400 X57.287 Y72.353
G01 F400 X57.556 Y72.410
G01 F400 X57.807 Y72.522
G01 F400 X58.030 Y72.683
G01 F400 X58.214 Y72.887
G01 F400 X58.351 Y73.125
G01 F400 X58.420 Y73.338
G01 F400 X58.489 Y73.125
G01 F400 X58.627 Y72.887
G01 F400 X58.810 Y72.683
G01 F400 X59.033 Y72.522
G01 F400 X59.284 Y72.410
G01 F400 X59.553 Y72.353
G01 F400 X59.827 Y72.353
G01 F400 X60.096 Y72.410
G01 F400 X60.347 Y72.522
G01 F400 X60.570 Y72.683
G01 F400 X60.754 Y72.887
G01 F400 X60.891 Y73.125
G01 F400 X60.960 Y73.338
G01 F400 X61.029 Y73.125
G01 F400 X61.167 Y72.887
G01 F400 X61.350 Y72.683
G01 F400 X61.573 Y72.522
G01 F400 X61.824 Y72.410
G01 F400 X62.093 Y72.353
G01 F400 X62.367 Y72.353
G01 F400 X62.636 Y72.410
G01 F400 X62.887 Y72.522
G01 F400 X63.110 Y72.683
G01 F400 X63.294 Y72.887
G01 F400 X63.431 Y73.125
G01 F400 X63.500 Y73.338
G01 F400 X63.569 Y73.125
G01 F400 X63.707 Y72.887
G01 F400 X63.890 Y72.683
G01 F400 X64.113 Y72.522
G01 F400 X64.364 Y72.410
G01 F400 X64.633 Y72.353
G01 F400 X64.907 Y72.353
G01 F400 X65.176 Y72.410
G01 F400 X65.427 Y72.522
G01 F400 X65.650 Y72.683
G01 F400 X65.834 Y72.887
G01 F400 X65.971 Y73.125
G01 F400 X66.040 Y73.338
G01 F400 X66.109 Y73.125
G01 F400 X66.246 Y72.887
G01 F400 X66.430 Y72.683
G01 F400 X66.653 Y72.522
G01 F400 X66.904 Y72.410
G01 F400 X67.173 Y72.353
G01 F400 X67.447 Y72.353
G01 F400 X67.716 Y72.410
G01 F400 X67.967 Y72.522
G01 F400 X68.190 Y72.683
G01 F400 X68.374 Y72.887
G01 F400 X68.511 Y73.125
G01 F400 X68.580 Y73.338
G01 F400 X68.649 Y73.125
G01 F400 X68.787 Y72.887
G01 F400 X68.970 Y72.683
G01 F400 X69.193 Y72.522
G01 F400 X69.444 Y72.410
G01 F400 X69.713 Y72.353
G01 F400 X69.987 Y72.353
G01 F400 X70.256 Y72.410
G01 F400 X70.507 Y72.522
G01 F400 X70.730 Y72.683
G01 F400 X70.913 Y72.887
G01 F400 X71.051 Y73.125
G01 F400 X71.120 Y73.338
G01 F400 X71.189 Y73.125
G01 F400 X71.327 Y72.887
G01 F400 X71.510 Y72.683
G01 F400 X71.733 Y72.522
G01 F400 X71.984 Y72.410
G01 F400 X72.253 Y72.353
G01 F400 X72.527 Y72.353
G01 F400 X72.796 Y72.410
G01 F400 X73.047 Y72.522
G01 F400 X73.270 Y72.683
G01 F400 X73.454 Y72.887
G01 F400 X73.591 Y73.125
G01 F400 X73.676 Y73.387
G01 F400 X73.705 Y73.660
G01 F400 X73.676 Y73.933
G01 F400 X73.591 Y74.195
G01 F400 X73.454 Y74.433
G01 F400 X73.270 Y74.637
G01 F400 X73.047 Y74.799
G01 F400 X72.796 Y74.910
G01 F400 X72.527 Y74.967
G01 F400 X72.253 Y74.967
G01 F400 X71.984 Y74.910
G01 F400 X71.733 Y74.799
G01 F400 X71.510 Y74.637
G01 F400 X71.327 Y74.433
G01 F400 X71.189 Y74.195
G01 F400 X71.120 Y73.982
G01 F400 X71.051 Y74.195
G01 F400 X70.913 Y74.433
G01 F400 X70.730 Y74.637
G01 F400 X70.507 Y74.799
G01 F400 X70.256 Y74.910
G01 F400 X69.987 Y74.967
G01 F400 X69.713 Y74.967
G01 F400 X69.444 Y74.910
G01 F400 X69.193 Y74.799
G01 F400 X68.970 Y74.637
G01 F400 X68.787 Y74.433
G01 F400 X68.649 Y74.195
G01 F400 X68.580 Y73.982
G01 F400 X68.511 Y74.195
G01 F400 X68.374 Y74.433
G01 F400 X68.190 Y74.637
G01 F400 X67.967 Y74.799
G01 F400 X67.716 Y74.910
G01 F400 X67.447 Y74.967
G01 F400 X67.173 Y74.967
G01 F400 X66.904 Y74.910
G01 F400 X66.653 Y74.799
G01 F400 X66.430 Y74.637
G01 F400 X66.246 Y74.433
G01 F400 X66.109 Y74.195
G01 F400 X66.040 Y73.982
G01 F400 X65.971 Y74.195
G01 F400 X65.834 Y74.433
G01 F400 X65.650 Y74.637
G01 F400 X65.427 Y74.799
G01 F400 X65.176 Y74.910
G01 F400 X64.907 Y74.967
G01 F400 X64.633 Y74.967
G01 F400 X64.364 Y74.910
G01 F400 X64.113 Y74.799
G01 F400 X63.890 Y74.637
G01 F400 X63.707 Y74.433
G01 F400 X63.569 Y74.195
G01 F400 X63.500 Y73.982
G01 F400 X63.431 Y74.195
G01 F400 X63.294 Y74.433
G01 F400 X63.110 Y74.637
G01 F400 X62.887 Y74.799
G01 F400 X62.636 Y74.910
G01 F400 X62.367 Y74.967
G01 F400 X62.093 Y74.967
G01 F400 X61.824 Y74.910
G01 F400 X61.573 Y74.799
G01 F400 X61.350 Y74.637
G01 F400 X61.167 Y74.433
G01 F400 X61.029 Y74.195
G01 F400 X60.960 Y73.982
G01 F400 X60.891 Y74.195
G01 F400 X60.754 Y74.433
G01 F400 X60.570 Y74.637
G01 F400 X60.347 Y74.799
G01 F400 X60.096 Y74.910
G01 F400 X59.827 Y74.967
G01 F400 X59.553 Y74.967
G01 F400 X59.284 Y74.910
G01 F400 X59.033 Y74.799
G01 F400 X58.810 Y74.637
G01 F400 X58.627 Y74.433
G01 F400 X58.489 Y74.195
G01 F400 X58.420 Y73.982
G01 F400 X58.351 Y74.195
G01 F400 X58.214 Y74.433
G01 F400 X58.030 Y74.637
G01 F400 X57.807 Y74.799
G01 F400 X57.556 Y74.910
G01 F400 X57.287 Y74.967
G01 F400 X57.013 Y74.967
G01 F400 X56.744 Y74.910
G01 F400 X56.493 Y74.799
G01 F400 X56.270 Y74.637
G01 F400 X56.087 Y74.433
G01 F400 X55.949 Y74.195
G01 F400 X55.880 Y73.982
G01 F400 X55.811 Y74.195
G01 F400 X55.674 Y74.433
G01 F400 X55.490 Y74.637
G01 F400 X55.267 Y74.799
G01 F400 X55.016 Y74.910
G01 F400 X54.747 Y74.967
G01 F400 X54.473 Y74.967
G00 Z3.000
G00  X72.393 Y54.597
G01 F750 Z0
G01 F400 Z-0.100
G01 F400 X72.124 Y54.540
G01 F400 X71.873 Y54.428
G01 F400 X71.650 Y54.267
G01 F400 X71.466 Y54.063
G01 F400 X71.329 Y53.825
G01 F400 X71.244 Y53.563
G01 F400 X71.215 Y53.290
G01 F400 X71.244 Y53.017
G01 F400 X71.329 Y52.755
G01 F400 X71.466 Y52.517
G01 F400 X71.650 Y52.313
G01 F400 X71.873 Y52.152
G01 F400 X72.124 Y52.040
G01 F400 X72.217 Y52.020
G01 F400 X72.124 Y52.000
G01 F400 X71.873 Y51.889
G01 F400 X71.650 Y51.727
G01 F400 X71.466 Y51.523
G01 F400 X71.329 Y51.285
G01 F400 X71.244 Y51.023
G01 F400 X71.215 Y50.750
G01 F400 X71.244 Y50.477
G01 F400 X71.329 Y50.215
G01 F400 X71.466 Y49.977
G01 F400 X71.650 Y49.773
G01 F400 X71.873 Y49.611
G01 F400 X72.124 Y49.500
G01 F400 X72.217 Y49.480
G01 F400 X72.124 Y49.460
G01 F400 X71.873 Y49.349
G01 F400 X71.650 Y49.187
G01 F400 X71.466 Y48.983
G01 F400 X71.329 Y48.745
G01 F400 X71.244 Y48.483
G01 F400 X71.215 Y48.210
G01 F400 X71.244 Y47.937
G01 F400 X71.329 Y47.675
G01 F400 X71.466 Y47.437
G01 F400 X71.650 Y47.233
G01 F400 X71.873 Y47.072
G01 F400 X72.124 Y46.960
G01 F400 X72.393 Y46.903
G01 F400 X72.667 Y46.903
G01 F400 X72.936 Y46.960
G01 F400 X73.187 Y47.072
G01 F400 X73.410 Y47.233
G01 F400 X73.594 Y47.437
G01 F400 X73.731 Y47.675
G01 F400 X73.800 Y47.888
G01 F400 X73.869 Y47.675
G01 F400 X74.007 Y47.437
G01 F400 X74.190 Y47.233
G01 F400 X74.413 Y47.072
G01 F400 X74.664 Y46.960
G01 F400 X74.933 Y46.903
G01 F400 X75.207 Y46.903
G01 F400 X75.476 Y46.960
G01 F400 X75.584 Y47.008
G01 F400 X77.683 Y44.908
G01 F400 X77.681 Y18.587
G01 F400 X76.850 Y17.757
G01 F400 X74.293 Y17.757
G01 F400 X74.293 Y14.393
G01 F400 X62.654 Y14.393
G01 F400 X62.654 Y24.158
G01 F400 X62.887 Y24.262
G01 F400 X63.110 Y24.423
G01 F400 X63.294 Y24.627
G01 F400 X63.431 Y24.865
G01 F400 X63.500 Y25.078
G01 F400 X63.569 Y24.865
G01 F400 X63.707 Y24.627
G01 F400 X63.890 Y24.423
G01 F400 X64.113 Y24.262
G01 F400 X64.364 Y24.150
G01 F400 X64.633 Y24.093
G01 F400 X64.907 Y24.093
G01 F400 X65.176 Y24.150
G01 F400 X65.427 Y24.262
G01 F400 X65.650 Y24.423
G01 F400 X65.834 Y24.627
G01 F400 X65.971 Y24.865
G01 F400 X66.040 Y25.078
G01 F400 X66.109 Y24.865
G01 F400 X66.246 Y24.627
G01 F400 X66.430 Y24.423
G01 F400 X66.653 Y24.262
G01 F400 X66.904 Y24.150
G01 F400 X67.173 Y24.093
G01 F400 X67.447 Y24.093
G01 F400 X67.716 Y24.150
G01 F400 X67.967 Y24.262
G01 F400 X68.190 Y24.423
G01 F400 X68.374 Y24.627
G01 F400 X68.511 Y24.865
G01 F400 X68.580 Y25.078
G01 F400 X68.649 Y24.865
G01 F400 X68.787 Y24.627
G01 F400 X68.970 Y24.423
G01 F400 X69.193 Y24.262
G01 F400 X69.444 Y24.150
G01 F400 X69.713 Y24.093
G01 F400 X69.987 Y24.093
G01 F400 X70.256 Y24.150
G01 F400 X70.507 Y24.262
G01 F400 X70.730 Y24.423
G01 F400 X70.913 Y24.627
G01 F400 X71.051 Y24.865
G01 F400 X71.120 Y25.078
G01 F400 X71.189 Y24.865
G01 F400 X71.327 Y24.627
G01 F400 X71.510 Y24.423
G01 F400 X71.733 Y24.262
G01 F400 X71.984 Y24.150
G01 F400 X72.253 Y24.093
G01 F400 X72.527 Y24.093
G01 F400 X72.796 Y24.150
G01 F400 X73.047 Y24.262
G01 F400 X73.270 Y24.423
G01 F400 X73.454 Y24.627
G01 F400 X73.591 Y24.865
G01 F400 X73.676 Y25.127
G01 F400 X73.705 Y25.400
G01 F400 X73.676 Y25.673
G01 F400 X73.591 Y25.935
G01 F400 X73.454 Y26.173
G01 F400 X73.270 Y26.377
G01 F400 X73.047 Y26.539
G01 F400 X72.796 Y26.650
G01 F400 X72.527 Y26.707
G01 F400 X72.253 Y26.707
G01 F400 X71.984 Y26.650
G01 F400 X71.733 Y26.539
G01 F400 X71.510 Y26.377
G01 F400 X71.327 Y26.173
G01 F400 X71.189 Y25.935
G01 F400 X71.120 Y25.722
G01 F400 X71.051 Y25.935
G01 F400 X70.913 Y26.173
G01 F400 X70.730 Y26.377
G01 F400 X70.507 Y26.539
G01 F400 X70.256 Y26.650
G01 F400 X69.987 Y26.707
G01 F400 X69.713 Y26.707
G01 F400 X69.444 Y26.650
G01 F400 X69.193 Y26.539
G01 F400 X68.970 Y26.377
G01 F400 X68.787 Y26.173
G01 F400 X68.649 Y25.935
G01 F400 X68.580 Y25.722
G01 F400 X68.511 Y25.935
G01 F400 X68.374 Y26.173
G01 F400 X68.190 Y26.377
G01 F400 X67.967 Y26.539
G01 F400 X67.716 Y26.650
G01 F400 X67.447 Y26.707
G01 F400 X67.173 Y26.707
G01 F400 X66.904 Y26.650
G01 F400 X66.653 Y26.539
G01 F400 X66.430 Y26.377
G01 F400 X66.246 Y26.173
G01 F400 X66.109 Y25.935
G01 F400 X66.040 Y25.722
G01 F400 X65.971 Y25.935
G01 F400 X65.834 Y26.173
G01 F400 X65.650 Y26.377
G01 F400 X65.427 Y26.539
G01 F400 X65.176 Y26.650
G01 F400 X64.907 Y26.707
G01 F400 X64.633 Y26.707
G01 F400 X64.364 Y26.650
G01 F400 X64.113 Y26.539
G01 F400 X63.890 Y26.377
G01 F400 X63.707 Y26.173
G01 F400 X63.569 Y25.935
G01 F400 X63.500 Y25.722
G01 F400 X63.431 Y25.935
G01 F400 X63.294 Y26.173
G01 F400 X63.110 Y26.377
G01 F400 X62.887 Y26.539
G01 F400 X62.636 Y26.650
G01 F400 X62.367 Y26.707
G01 F400 X62.093 Y26.707
G01 F400 X61.824 Y26.650
G01 F400 X61.573 Y26.539
G01 F400 X61.350 Y26.377
G01 F400 X61.167 Y26.173
G01 F400 X61.029 Y25.935
G01 F400 X60.960 Y25.722
G01 F400 X60.891 Y25.935
G01 F400 X60.754 Y26.173
G01 F400 X60.570 Y26.377
G01 F400 X60.347 Y26.539
G01 F400 X60.096 Y26.650
G01 F400 X59.827 Y26.707
G01 F400 X59.553 Y26.707
G01 F400 X59.284 Y26.650
G01 F400 X59.033 Y26.539
G01 F400 X58.810 Y26.377
G01 F400 X58.627 Y26.173
G01 F400 X58.489 Y25.935
G01 F400 X58.404 Y25.673
G01 F400 X58.375 Y25.400
G01 F400 X58.404 Y25.127
G01 F400 X58.489 Y24.865
G01 F400 X58.627 Y24.627
G01 F400 X58.810 Y24.423
G01 F400 X59.033 Y24.262
G01 F400 X59.284 Y24.150
G01 F400 X59.553 Y24.093
G01 F400 X59.827 Y24.093
G01 F400 X60.096 Y24.150
G01 F400 X60.347 Y24.262
G01 F400 X60.570 Y24.423
G01 F400 X60.754 Y24.627
G01 F400 X60.891 Y24.865
G01 F400 X60.960 Y25.078
G01 F400 X61.029 Y24.865
G01 F400 X61.167 Y24.627
G01 F400 X61.350 Y24.423
G01 F400 X61.573 Y24.262
G01 F400 X61.808 Y24.157
G01 F400 X61.806 Y13.915
G01 F400 X61.867 Y13.729
G01 F400 X62.014 Y13.596
G01 F400 X62.167 Y13.547
G01 F400 X74.293 Y13.547
G01 F400 X74.293 Y12.488
G01 F400 X47.414 Y12.488
G01 F400 X47.414 Y24.158
G01 F400 X47.647 Y24.262
G01 F400 X47.870 Y24.423
G01 F400 X48.053 Y24.627
G01 F400 X48.191 Y24.865
G01 F400 X48.260 Y25.078
G01 F400 X48.329 Y24.865
G01 F400 X48.467 Y24.627
G01 F400 X48.650 Y24.423
G01 F400 X48.873 Y24.262
G01 F400 X49.124 Y24.150
G01 F400 X49.393 Y24.093
G01 F400 X49.667 Y24.093
G01 F400 X49.936 Y24.150
G01 F400 X50.187 Y24.262
G01 F400 X50.410 Y24.423
G01 F400 X50.594 Y24.627
G01 F400 X50.731 Y24.865
G01 F400 X50.800 Y25.078
G01 F400 X50.869 Y24.865
G01 F400 X51.007 Y24.627
G01 F400 X51.190 Y24.423
G01 F400 X51.413 Y24.262
G01 F400 X51.664 Y24.150
G01 F400 X51.933 Y24.093
G01 F400 X52.207 Y24.093
G01 F400 X52.476 Y24.150
G01 F400 X52.727 Y24.262
G01 F400 X52.950 Y24.423
G01 F400 X53.134 Y24.627
G01 F400 X53.271 Y24.865
G01 F400 X53.340 Y25.078
G01 F400 X53.409 Y24.865
G01 F400 X53.547 Y24.627
G01 F400 X53.730 Y24.423
G01 F400 X53.953 Y24.262
G01 F400 X54.204 Y24.150
G01 F400 X54.473 Y24.093
G01 F400 X54.747 Y24.093
G01 F400 X55.016 Y24.150
G01 F400 X55.267 Y24.262
G01 F400 X55.490 Y24.423
G01 F400 X55.674 Y24.627
G01 F400 X55.811 Y24.865
G01 F400 X55.896 Y25.127
G01 F400 X55.925 Y25.400
G01 F400 X55.896 Y25.673
G01 F400 X55.811 Y25.935
G01 F400 X55.674 Y26.173
G01 F400 X55.490 Y26.377
G01 F400 X55.267 Y26.539
G01 F400 X55.016 Y26.650
G01 F400 X54.747 Y26.707
G01 F400 X54.473 Y26.707
G01 F400 X54.204 Y26.650
G01 F400 X53.953 Y26.539
G01 F400 X53.730 Y26.377
G01 F400 X53.547 Y26.173
G01 F400 X53.409 Y25.935
G01 F400 X53.340 Y25.722
G01 F400 X53.271 Y25.935
G01 F400 X53.134 Y26.173
G01 F400 X52.950 Y26.377
G01 F400 X52.727 Y26.539
G01 F400 X52.476 Y26.650
G01 F400 X52.207 Y26.707
G01 F400 X51.933 Y26.707
G01 F400 X51.664 Y26.650
G01 F400 X51.413 Y26.539
G01 F400 X51.190 Y26.377
G01 F400 X51.007 Y26.173
G01 F400 X50.869 Y25.935
G01 F400 X50.800 Y25.722
G01 F400 X50.731 Y25.935
G01 F400 X50.594 Y26.173
G01 F400 X50.410 Y26.377
G01 F400 X50.187 Y26.539
G01 F400 X49.936 Y26.650
G01 F400 X49.667 Y26.707
G01 F400 X49.393 Y26.707
G01 F400 X49.124 Y26.650
G01 F400 X48.873 Y26.539
G01 F400 X48.650 Y26.377
G01 F400 X48.467 Y26.173
G01 F400 X48.329 Y25.935
G01 F400 X48.260 Y25.722
G01 F400 X48.191 Y25.935
G01 F400 X48.053 Y26.173
G01 F400 X47.870 Y26.377
G01 F400 X47.647 Y26.539
G01 F400 X47.396 Y26.650
G01 F400 X47.127 Y26.707
G01 F400 X46.853 Y26.707
G01 F400 X46.584 Y26.650
G01 F400 X46.333 Y26.539
G01 F400 X46.110 Y26.377
G01 F400 X45.927 Y26.173
G01 F400 X45.789 Y25.935
G01 F400 X45.720 Y25.722
G01 F400 X45.651 Y25.935
G01 F400 X45.514 Y26.173
G01 F400 X45.330 Y26.377
G01 F400 X45.107 Y26.539
G01 F400 X44.856 Y26.650
G01 F400 X44.587 Y26.707
G01 F400 X44.313 Y26.707
G01 F400 X44.044 Y26.650
G01 F400 X43.793 Y26.539
G01 F400 X43.570 Y26.377
G01 F400 X43.387 Y26.173
G01 F400 X43.249 Y25.935
G01 F400 X43.180 Y25.722
G01 F400 X43.111 Y25.935
G01 F400 X42.974 Y26.173
G01 F400 X42.790 Y26.377
G01 F400 X42.567 Y26.539
G01 F400 X42.316 Y26.650
G01 F400 X42.047 Y26.707
G01 F400 X41.773 Y26.707
G01 F400 X41.504 Y26.650
G01 F400 X41.253 Y26.539
G01 F400 X41.030 Y26.377
G01 F400 X40.846 Y26.173
G01 F400 X40.709 Y25.935
G01 F400 X40.640 Y25.722
G01 F400 X40.571 Y25.935
G01 F400 X40.434 Y26.173
G01 F400 X40.250 Y26.377
G01 F400 X40.027 Y26.539
G01 F400 X39.776 Y26.650
G01 F400 X39.507 Y26.707
G01 F400 X39.233 Y26.707
G01 F400 X38.964 Y26.650
G01 F400 X38.713 Y26.539
G01 F400 X38.490 Y26.377
G01 F400 X38.306 Y26.173
G01 F400 X38.169 Y25.935
G01 F400 X38.100 Y25.722
G01 F400 X38.031 Y25.935
G01 F400 X37.894 Y26.173
G01 F400 X37.710 Y26.377
G01 F400 X37.487 Y26.539
G01 F400 X37.236 Y26.650
G01 F400 X36.967 Y26.707
G01 F400 X36.693 Y26.707
G01 F400 X36.424 Y26.650
G01 F400 X36.173 Y26.539
G01 F400 X35.950 Y26.377
G01 F400 X35.767 Y26.173
G01 F400 X35.629 Y25.935
G01 F400 X35.544 Y25.673
G01 F400 X35.515 Y25.400
G01 F400 X35.544 Y25.127
G01 F400 X35.629 Y24.865
G01 F400 X35.767 Y24.627
G01 F400 X35.950 Y24.423
G01 F400 X36.173 Y24.262
G01 F400 X36.424 Y24.150
G01 F400 X36.693 Y24.093
G01 F400 X36.967 Y24.093
G01 F400 X37.236 Y24.150
G01 F400 X37.487 Y24.262
G01 F400 X37.710 Y24.423
G01 F400 X37.894 Y24.627
G01 F400 X38.031 Y24.865
G01 F400 X38.100 Y25.078
G01 F400 X38.169 Y24.865
G01 F400 X38.306 Y24.627
G01 F400 X38.490 Y24.423
G01 F400 X38.713 Y24.262
G01 F400 X38.964 Y24.150
G01 F400 X39.233 Y24.093
G01 F400 X39.507 Y24.093
G01 F400 X39.776 Y24.150
G01 F400 X40.027 Y24.262
G01 F400 X40.250 Y24.423
G01 F400 X40.434 Y24.627
G01 F400 X40.571 Y24.865
G01 F400 X40.640 Y25.078
G01 F400 X40.709 Y24.865
G01 F400 X40.846 Y24.627
G01 F400 X41.030 Y24.423
G01 F400 X41.253 Y24.262
G01 F400 X41.504 Y24.150
G01 F400 X41.773 Y24.093
G01 F400 X42.047 Y24.093
G01 F400 X42.316 Y24.150
G01 F400 X42.567 Y24.262
G01 F400 X42.790 Y24.423
G01 F400 X42.974 Y24.627
G01 F400 X43.111 Y24.865
G01 F400 X43.180 Y25.078
G01 F400 X43.249 Y24.865
G01 F400 X43.387 Y24.627
G01 F400 X43.570 Y24.423
G01 F400 X43.793 Y24.262
G01 F400 X44.044 Y24.150
G01 F400 X44.313 Y24.093
G01 F400 X44.587 Y24.093
G01 F400 X44.856 Y24.150
G01 F400 X45.107 Y24.262
G01 F400 X45.330 Y24.423
G01 F400 X45.514 Y24.627
G01 F400 X45.651 Y24.865
G01 F400 X45.720 Y25.078
G01 F400 X45.789 Y24.865
G01 F400 X45.927 Y24.627
G01 F400 X46.110 Y24.423
G01 F400 X46.333 Y24.262
G01 F400 X46.568 Y24.157
G01 F400 X46.566 Y12.010
G01 F400 X46.627 Y11.824
G01 F400 X46.774 Y11.691
G01 F400 X46.927 Y11.642
G01 F400 X74.293 Y11.642
G01 F400 X74.293 Y10.183
G01 F400 X76.867 Y10.183
G01 F400 X76.867 Y16.578
G01 F400 X78.421 Y18.132
G01 F400 X78.499 Y18.239
G01 F400 X78.529 Y18.379
G01 F400 X78.529 Y45.122
G01 F400 X78.499 Y45.261
G01 F400 X78.421 Y45.368
G01 F400 X76.213 Y47.576
G01 F400 X76.271 Y47.675
G01 F400 X76.356 Y47.937
G01 F400 X76.385 Y48.210
G01 F400 X76.356 Y48.483
G01 F400 X76.271 Y48.745
G01 F400 X76.133 Y48.983
G01 F400 X75.950 Y49.187
G01 F400 X75.727 Y49.349
G01 F400 X75.476 Y49.460
G01 F400 X75.383 Y49.480
G01 F400 X75.476 Y49.500
G01 F400 X75.727 Y49.611
G01 F400 X75.950 Y49.773
G01 F400 X76.133 Y49.977
G01 F400 X76.271 Y50.215
G01 F400 X76.356 Y50.477
G01 F400 X76.385 Y50.750
G01 F400 X76.356 Y51.023
G01 F400 X76.271 Y51.285
G01 F400 X76.133 Y51.523
G01 F400 X75.950 Y51.727
G01 F400 X75.727 Y51.889
G01 F400 X75.476 Y52.000
G01 F400 X75.383 Y52.020
G01 F400 X75.476 Y52.040
G01 F400 X75.727 Y52.152
G01 F400 X75.950 Y52.313
G01 F400 X76.133 Y52.517
G01 F400 X76.271 Y52.755
G01 F400 X76.356 Y53.017
G01 F400 X76.385 Y53.290
G01 F400 X76.356 Y53.563
G01 F400 X76.271 Y53.825
G01 F400 X76.133 Y54.063
G01 F400 X75.950 Y54.267
G01 F400 X75.727 Y54.428
G01 F400 X75.476 Y54.540
G01 F400 X75.207 Y54.597
G01 F400 X74.933 Y54.597
G01 F400 X74.664 Y54.540
G01 F400 X74.413 Y54.428
G01 F400 X74.190 Y54.267
G01 F400 X74.007 Y54.063
G01 F400 X73.869 Y53.825
G01 F400 X73.800 Y53.612
G01 F400 X73.731 Y53.825
G01 F400 X73.594 Y54.063
G01 F400 X73.410 Y54.267
G01 F400 X73.187 Y54.428
G01 F400 X72.936 Y54.540
G01 F400 X72.667 Y54.597
G01 F400 X72.393 Y54.597
G00 Z3.000
G00  X73.800 Y52.968
G01 F750 Z0
G01 F400 Z-0.100
G01 F400 X73.869 Y52.755
G01 F400 X74.007 Y52.517
G01 F400 X74.190 Y52.313
G01 F400 X74.413 Y52.152
G01 F400 X74.664 Y52.040
G01 F400 X74.757 Y52.020
G01 F400 X74.664 Y52.000
G01 F400 X74.413 Y51.889
G01 F400 X74.190 Y51.727
G01 F400 X74.007 Y51.523
G01 F400 X73.869 Y51.285
G01 F400 X73.800 Y51.072
G01 F400 X73.731 Y51.285
G01 F400 X73.594 Y51.523
G01 F400 X73.410 Y51.727
G01 F400 X73.187 Y51.889
G01 F400 X72.936 Y52.000
G01 F400 X72.843 Y52.020
G01 F400 X72.936 Y52.040
G01 F400 X73.187 Y52.152
G01 F400 X73.410 Y52.313
G01 F400 X73.594 Y52.517
G01 F400 X73.731 Y52.755
G01 F400 X73.800 Y52.968
G00 Z3.000
G00  X73.800 Y50.428
G01 F750 Z0
G01 F400 Z-0.100
G01 F400 X73.869 Y50.215
G01 F400 X74.007 Y49.977
G01 F400 X74.190 Y49.773
G01 F400 X74.413 Y49.611
G01 F400 X74.664 Y49.500
G01 F400 X74.757 Y49.480
G01 F400 X74.664 Y49.460
G01 F400 X74.413 Y49.349
G01 F400 X74.190 Y49.187
G01 F400 X74.007 Y48.983
G01 F400 X73.869 Y48.745
G01 F400 X73.800 Y48.532
G01 F400 X73.731 Y48.745
G01 F400 X73.594 Y48.983
G01 F400 X73.410 Y49.187
G01 F400 X73.187 Y49.349
G01 F400 X72.936 Y49.460
G01 F400 X72.843 Y49.480
G01 F400 X72.936 Y49.500
G01 F400 X73.187 Y49.611
G01 F400 X73.410 Y49.773
G01 F400 X73.594 Y49.977
G01 F400 X73.731 Y50.215
G01 F400 X73.800 Y50.428
G00 Z3.000
G00  X68.302 Y20.350
G01 F750 Z0
G01 F400 Z-0.100
G01 F400 X66.983 Y19.573
G01 F400 X66.600 Y18.092
G01 F400 X67.377 Y16.773
G01 F400 X68.858 Y16.390
G01 F400 X70.177 Y17.167
G01 F400 X70.560 Y18.648
G01 F400 X69.783 Y19.967
G01 F400 X68.302 Y20.350
G00 Z3.000
G00  X68.302 Y11.550
G01 F750 Z0
G01 F400 Z-0.100
G01 F400 X66.983 Y10.773
G01 F400 X66.600 Y9.292
G01 F400 X67.377 Y7.973
G01 F400 X68.858 Y7.590
G01 F400 X70.177 Y8.367
G01 F400 X70.560 Y9.848
G01 F400 X69.783 Y11.167
G01 F400 X68.302 Y11.550
G00 Z3.000
G00  X37.942 Y85.326
G01 F750 Z0
G01 F400 Z-0.100
G01 F400 X37.632 Y85.260
G01 F400 X37.343 Y85.131
G01 F400 X37.087 Y84.945
G01 F400 X36.875 Y84.710
G01 F400 X36.735 Y84.467
G01 F400 X31.524 Y84.467
G01 F400 X31.479 Y84.546
G01 F400 X31.306 Y84.737
G01 F400 X31.097 Y84.889
G01 F400 X30.861 Y84.994
G01 F400 X30.609 Y85.048
G01 F400 X30.351 Y85.048
G01 F400 X30.099 Y84.994
G01 F400 X29.863 Y84.889
G01 F400 X29.654 Y84.737
G01 F400 X29.481 Y84.546
G01 F400 X29.352 Y84.322
G01 F400 X29.273 Y84.077
G01 F400 X29.246 Y83.820
G01 F400 X29.273 Y83.563
G01 F400 X29.350 Y83.325
G01 F400 X29.139 Y83.536
G01 F400 X29.147 Y83.564
G01 F400 X29.174 Y83.820
G01 F400 X29.147 Y84.077
G01 F400 X29.068 Y84.322
G01 F400 X28.939 Y84.546
G01 F400 X28.766 Y84.737
G01 F400 X28.557 Y84.889
G01 F400 X28.321 Y84.994
G01 F400 X28.069 Y85.048
G01 F400 X27.811 Y85.048
G01 F400 X27.559 Y84.994
G01 F400 X27.323 Y84.889
G01 F400 X27.114 Y84.737
G01 F400 X26.941 Y84.546
G01 F400 X26.812 Y84.322
G01 F400 X26.733 Y84.077
G01 F400 X26.706 Y83.820
G01 F400 X26.733 Y83.563
G01 F400 X26.812 Y83.318
G01 F400 X26.941 Y83.095
G01 F400 X27.114 Y82.903
G01 F400 X27.323 Y82.751
G01 F400 X27.559 Y82.646
G01 F400 X27.811 Y82.592
G01 F400 X28.069 Y82.592
G01 F400 X28.222 Y82.625
G01 F400 X34.279 Y76.566
G01 F400 X34.279 Y74.806
G01 F400 X34.276 Y74.804
G01 F400 X34.061 Y74.565
G01 F400 X34.036 Y74.522
G01 F400 X34.011 Y74.565
G01 F400 X33.796 Y74.804
G01 F400 X33.536 Y74.993
G01 F400 X33.242 Y75.124
G01 F400 X32.927 Y75.191
G01 F400 X32.605 Y75.191
G01 F400 X32.290 Y75.124
G01 F400 X31.996 Y74.993
G01 F400 X31.736 Y74.804
G01 F400 X31.521 Y74.565
G01 F400 X31.496 Y74.522
G01 F400 X31.471 Y74.565
G01 F400 X31.256 Y74.804
G01 F400 X30.996 Y74.993
G01 F400 X30.702 Y75.124
G01 F400 X30.387 Y75.191
G01 F400 X30.065 Y75.191
G01 F400 X29.750 Y75.124
G01 F400 X29.456 Y74.993
G01 F400 X29.196 Y74.804
G01 F400 X28.981 Y74.565
G01 F400 X28.956 Y74.522
G01 F400 X28.931 Y74.565
G01 F400 X28.716 Y74.804
G01 F400 X28.456 Y74.993
G01 F400 X28.162 Y75.124
G01 F400 X27.847 Y75.191
G01 F400 X27.525 Y75.191
G01 F400 X27.210 Y75.124
G01 F400 X26.916 Y74.993
G01 F400 X26.656 Y74.804
G01 F400 X26.441 Y74.565
G01 F400 X26.280 Y74.286
G01 F400 X26.180 Y73.980
G01 F400 X26.147 Y73.660
G01 F400 X26.180 Y73.340
G01 F400 X26.280 Y73.034
G01 F400 X26.441 Y72.755
G01 F400 X26.656 Y72.516
G01 F400 X26.916 Y72.327
G01 F400 X27.210 Y72.196
G01 F400 X27.525 Y72.129
G01 F400 X27.847 Y72.129
G01 F400 X28.162 Y72.196
G01 F400 X28.456 Y72.327
G01 F400 X28.716 Y72.516
G01 F400 X28.931 Y72.755
G01 F400 X28.956 Y72.798
G01 F400 X28.981 Y72.755
G01 F400 X29.196 Y72.516
G01 F400 X29.456 Y72.327
G01 F400 X29.750 Y72.196
G01 F400 X30.065 Y72.129
G01 F400 X30.387 Y72.129
G01 F400 X30.702 Y72.196
G01 F400 X30.996 Y72.327
G01 F400 X31.256 Y72.516
G01 F400 X31.471 Y72.755
G01 F400 X31.496 Y72.798
G01 F400 X31.521 Y72.755
G01 F400 X31.736 Y72.516
G01 F400 X31.996 Y72.327
G01 F400 X32.290 Y72.196
G01 F400 X32.605 Y72.129
G01 F400 X32.927 Y72.129
G01 F400 X33.242 Y72.196
G01 F400 X33.536 Y72.327
G01 F400 X33.796 Y72.516
G01 F400 X34.011 Y72.755
G01 F400 X34.036 Y72.798
G01 F400 X34.061 Y72.755
G01 F400 X34.276 Y72.516
G01 F400 X34.536 Y72.327
G01 F400 X34.830 Y72.196
G01 F400 X35.145 Y72.129
G01 F400 X35.467 Y72.129
G01 F400 X35.782 Y72.196
G01 F400 X36.076 Y72.327
G01 F400 X36.336 Y72.516
G01 F400 X36.551 Y72.755
G01 F400 X36.576 Y72.798
G01 F400 X36.601 Y72.755
G01 F400 X36.816 Y72.516
G01 F400 X37.076 Y72.327
G01 F400 X37.370 Y72.196
G01 F400 X37.685 Y72.129
G01 F400 X38.007 Y72.129
G01 F400 X38.322 Y72.196
G01 F400 X38.616 Y72.327
G01 F400 X38.876 Y72.516
G01 F400 X39.091 Y72.755
G01 F400 X39.116 Y72.798
G01 F400 X39.141 Y72.755
G01 F400 X39.356 Y72.516
G01 F400 X39.616 Y72.327
G01 F400 X39.910 Y72.196
G01 F400 X40.225 Y72.129
G01 F400 X40.547 Y72.129
G01 F400 X40.862 Y72.196
G01 F400 X41.156 Y72.327
G01 F400 X41.416 Y72.516
G01 F400 X41.631 Y72.755
G01 F400 X41.656 Y72.798
G01 F400 X41.681 Y72.755
G01 F400 X41.896 Y72.516
G01 F400 X42.156 Y72.327
G01 F400 X42.450 Y72.196
G01 F400 X42.765 Y72.129
G01 F400 X43.087 Y72.129
G01 F400 X43.402 Y72.196
G01 F400 X43.696 Y72.327
G01 F400 X43.956 Y72.516
G01 F400 X44.171 Y72.755
G01 F400 X44.196 Y72.798
G01 F400 X44.221 Y72.755
G01 F400 X44.436 Y72.516
G01 F400 X44.696 Y72.327
G01 F400 X44.990 Y72.196
G01 F400 X45.305 Y72.129
G01 F400 X45.627 Y72.129
G01 F400 X45.942 Y72.196
G01 F400 X46.236 Y72.327
G01 F400 X46.496 Y72.516
G01 F400 X46.711 Y72.755
G01 F400 X46.736 Y72.798
G01 F400 X46.761 Y72.755
G01 F400 X46.976 Y72.516
G01 F400 X47.236 Y72.327
G01 F400 X47.530 Y72.196
G01 F400 X47.845 Y72.129
G01 F400 X48.167 Y72.129
G01 F400 X48.482 Y72.196
G01 F400 X48.776 Y72.327
G01 F400 X49.036 Y72.516
G01 F400 X49.251 Y72.755
G01 F400 X49.276 Y72.798
G01 F400 X49.301 Y72.755
G01 F400 X49.516 Y72.516
G01 F400 X49.776 Y72.327
G01 F400 X50.070 Y72.196
G01 F400 X50.385 Y72.129
G01 F400 X50.707 Y72.129
G01 F400 X51.022 Y72.196
G01 F400 X51.316 Y72.327
G01 F400 X51.576 Y72.516
G01 F400 X51.791 Y72.755
G01 F400 X51.952 Y73.034
G01 F400 X52.052 Y73.340
G01 F400 X52.085 Y73.660
G01 F400 X52.052 Y73.980
G01 F400 X51.952 Y74.286
G01 F400 X51.791 Y74.565
G01 F400 X51.576 Y74.804
G01 F400 X51.316 Y74.993
G01 F400 X51.022 Y75.124
G01 F400 X50.707 Y75.191
G01 F400 X50.385 Y75.191
G01 F400 X50.070 Y75.124
G01 F400 X49.776 Y74.993
G01 F400 X49.516 Y74.804
G01 F400 X49.301 Y74.565
G01 F400 X49.276 Y74.522
G01 F400 X49.251 Y74.565
G01 F400 X49.036 Y74.804
G01 F400 X48.776 Y74.993
G01 F400 X48.482 Y75.124
G01 F400 X48.167 Y75.191
G01 F400 X47.845 Y75.191
G01 F400 X47.530 Y75.124
G01 F400 X47.236 Y74.993
G01 F400 X46.976 Y74.804
G01 F400 X46.761 Y74.565
G01 F400 X46.736 Y74.522
G01 F400 X46.711 Y74.565
G01 F400 X46.496 Y74.804
G01 F400 X46.236 Y74.993
G01 F400 X45.942 Y75.124
G01 F400 X45.627 Y75.191
G01 F400 X45.305 Y75.191
G01 F400 X44.990 Y75.124
G01 F400 X44.696 Y74.993
G01 F400 X44.436 Y74.804
G01 F400 X44.221 Y74.565
G01 F400 X44.196 Y74.522
G01 F400 X44.171 Y74.565
G01 F400 X43.956 Y74.804
G01 F400 X43.826 Y74.898
G01 F400 X43.827 Y81.013
G01 F400 X45.213 Y82.398
G01 F400 X45.252 Y82.380
G01 F400 X45.562 Y82.315
G01 F400 X45.878 Y82.315
G01 F400 X46.188 Y82.380
G01 F400 X46.477 Y82.509
G01 F400 X46.733 Y82.695
G01 F400 X46.945 Y82.930
G01 F400 X47.103 Y83.204
G01 F400 X47.201 Y83.505
G01 F400 X47.234 Y83.820
G01 F400 X47.201 Y84.135
G01 F400 X47.103 Y84.436
G01 F400 X46.945 Y84.710
G01 F400 X46.733 Y84.945
G01 F400 X46.477 Y85.131
G01 F400 X46.188 Y85.260
G01 F400 X45.878 Y85.326
G01 F400 X45.562 Y85.326
G01 F400 X45.252 Y85.260
G01 F400 X44.963 Y85.131
G01 F400 X44.707 Y84.945
G01 F400 X44.495 Y84.710
G01 F400 X44.337 Y84.436
G01 F400 X44.239 Y84.135
G01 F400 X44.206 Y83.820
G01 F400 X44.239 Y83.505
G01 F400 X44.301 Y83.314
G01 F400 X42.672 Y81.687
G01 F400 X42.535 Y81.449
G01 F400 X42.533 Y75.141
G01 F400 X42.450 Y75.124
G01 F400 X42.156 Y74.993
G01 F400 X41.896 Y74.804
G01 F400 X41.681 Y74.565
G01 F400 X41.656 Y74.522
G01 F400 X41.631 Y74.565
G01 F400 X41.416 Y74.804
G01 F400 X41.156 Y74.993
G01 F400 X40.862 Y75.124
G01 F400 X40.547 Y75.191
G01 F400 X40.225 Y75.191
G01 F400 X39.910 Y75.124
G01 F400 X39.616 Y74.993
G01 F400 X39.356 Y74.804
G01 F400 X39.141 Y74.565
G01 F400 X39.116 Y74.522
G01 F400 X39.091 Y74.565
G01 F400 X38.876 Y74.804
G01 F400 X38.616 Y74.993
G01 F400 X38.322 Y75.124
G01 F400 X38.007 Y75.191
G01 F400 X37.685 Y75.191
G01 F400 X37.370 Y75.124
G01 F400 X37.076 Y74.993
G01 F400 X36.816 Y74.804
G01 F400 X36.601 Y74.565
G01 F400 X36.576 Y74.522
G01 F400 X36.551 Y74.565
G01 F400 X36.336 Y74.804
G01 F400 X36.076 Y74.993
G01 F400 X35.782 Y75.124
G01 F400 X35.577 Y75.167
G01 F400 X35.572 Y76.896
G01 F400 X35.528 Y77.104
G01 F400 X35.411 Y77.264
G01 F400 X29.973 Y82.702
G01 F400 X30.099 Y82.646
G01 F400 X30.351 Y82.592
G01 F400 X30.609 Y82.592
G01 F400 X30.861 Y82.646
G01 F400 X31.097 Y82.751
G01 F400 X31.306 Y82.903
G01 F400 X31.479 Y83.095
G01 F400 X31.524 Y83.173
G01 F400 X36.735 Y83.173
G01 F400 X36.875 Y82.930
G01 F400 X37.087 Y82.695
G01 F400 X37.343 Y82.509
G01 F400 X37.632 Y82.380
G01 F400 X37.942 Y82.315
G01 F400 X38.258 Y82.315
G01 F400 X38.568 Y82.380
G01 F400 X38.857 Y82.509
G01 F400 X39.113 Y82.695
G01 F400 X39.325 Y82.930
G01 F400 X39.483 Y83.204
G01 F400 X39.581 Y83.505
G01 F400 X39.614 Y83.820
G01 F400 X39.581 Y84.135
G01 F400 X39.483 Y84.436
G01 F400 X39.325 Y84.710
G01 F400 X39.113 Y84.945
G01 F400 X38.857 Y85.131
G01 F400 X38.568 Y85.260
G01 F400 X38.258 Y85.326
G01 F400 X37.942 Y85.326
G00 Z3.000
G00  X54.449 Y75.191
G01 F750 Z0
G01 F400 Z-0.100
G01 F400 X54.134 Y75.124
G01 F400 X53.840 Y74.993
G01 F400 X53.580 Y74.804
G01 F400 X53.365 Y74.565
G01 F400 X53.204 Y74.286
G01 F400 X53.104 Y73.980
G01 F400 X53.071 Y73.660
G01 F400 X53.104 Y73.340
G01 F400 X53.204 Y73.034
G01 F400 X53.365 Y72.755
G01 F400 X53.580 Y72.516
G01 F400 X53.840 Y72.327
G01 F400 X54.134 Y72.196
G01 F400 X54.449 Y72.129
G01 F400 X54.771 Y72.129
G01 F400 X55.086 Y72.196
G01 F400 X55.380 Y72.327
G01 F400 X55.640 Y72.516
G01 F400 X55.855 Y72.755
G01 F400 X55.880 Y72.798
G01 F400 X55.905 Y72.755
G01 F400 X56.120 Y72.516
G01 F400 X56.380 Y72.327
G01 F400 X56.674 Y72.196
G01 F400 X56.989 Y72.129
G01 F400 X57.311 Y72.129
G01 F400 X57.626 Y72.196
G01 F400 X57.920 Y72.327
G01 F400 X58.180 Y72.516
G01 F400 X58.395 Y72.755
G01 F400 X58.420 Y72.798
G01 F400 X58.445 Y72.755
G01 F400 X58.660 Y72.516
G01 F400 X58.920 Y72.327
G01 F400 X59.214 Y72.196
G01 F400 X59.529 Y72.129
G01 F400 X59.851 Y72.129
G01 F400 X60.166 Y72.196
G01 F400 X60.460 Y72.327
G01 F400 X60.720 Y72.516
G01 F400 X60.935 Y72.755
G01 F400 X60.960 Y72.798
G01 F400 X60.985 Y72.755
G01 F400 X61.200 Y72.516
G01 F400 X61.460 Y72.327
G01 F400 X61.754 Y72.196
G01 F400 X62.069 Y72.129
G01 F400 X62.391 Y72.129
G01 F400 X62.706 Y72.196
G01 F400 X63.000 Y72.327
G01 F400 X63.260 Y72.516
G01 F400 X63.475 Y72.755
G01 F400 X63.500 Y72.798
G01 F400 X63.525 Y72.755
G01 F400 X63.740 Y72.516
G01 F400 X64.000 Y72.327
G01 F400 X64.294 Y72.196
G01 F400 X64.609 Y72.129
G01 F400 X64.931 Y72.129
G01 F400 X65.246 Y72.196
G01 F400 X65.540 Y72.327
G01 F400 X65.800 Y72.516
G01 F400 X66.015 Y72.755
G01 F400 X66.040 Y72.798
G01 F400 X66.065 Y72.755
G01 F400 X66.280 Y72.516
G01 F400 X66.540 Y72.327
G01 F400 X66.834 Y72.196
G01 F400 X67.149 Y72.129
G01 F400 X67.471 Y72.129
G01 F400 X67.786 Y72.196
G01 F400 X68.080 Y72.327
G01 F400 X68.340 Y72.516
G01 F400 X68.555 Y72.755
G01 F400 X68.580 Y72.798
G01 F400 X68.605 Y72.755
G01 F400 X68.820 Y72.516
G01 F400 X69.080 Y72.327
G01 F400 X69.374 Y72.196
G01 F400 X69.689 Y72.129
G01 F400 X70.011 Y72.129
G01 F400 X70.326 Y72.196
G01 F400 X70.620 Y72.327
G01 F400 X70.880 Y72.516
G01 F400 X71.095 Y72.755
G01 F400 X71.120 Y72.798
G01 F400 X71.145 Y72.755
G01 F400 X71.360 Y72.516
G01 F400 X71.620 Y72.327
G01 F400 X71.914 Y72.196
G01 F400 X72.229 Y72.129
G01 F400 X72.551 Y72.129
G01 F400 X72.866 Y72.196
G01 F400 X73.160 Y72.327
G01 F400 X73.420 Y72.516
G01 F400 X73.635 Y72.755
G01 F400 X73.796 Y73.034
G01 F400 X73.896 Y73.340
G01 F400 X73.929 Y73.660
G01 F400 X73.896 Y73.980
G01 F400 X73.796 Y74.286
G01 F400 X73.635 Y74.565
G01 F400 X73.420 Y74.804
G01 F400 X73.160 Y74.993
G01 F400 X72.866 Y75.124
G01 F400 X72.551 Y75.191
G01 F400 X72.229 Y75.191
G01 F400 X71.914 Y75.124
G01 F400 X71.620 Y74.993
G01 F400 X71.360 Y74.804
G01 F400 X71.145 Y74.565
G01 F400 X71.120 Y74.522
G01 F400 X71.095 Y74.565
G01 F400 X70.880 Y74.804
G01 F400 X70.620 Y74.993
G01 F400 X70.326 Y75.124
G01 F400 X70.011 Y75.191
G01 F400 X69.689 Y75.191
G01 F400 X69.374 Y75.124
G01 F400 X69.080 Y74.993
G01 F400 X68.820 Y74.804
G01 F400 X68.605 Y74.565
G01 F400 X68.580 Y74.522
G01 F400 X68.555 Y74.565
G01 F400 X68.340 Y74.804
G01 F400 X68.080 Y74.993
G01 F400 X67.786 Y75.124
G01 F400 X67.471 Y75.191
G01 F400 X67.149 Y75.191
G01 F400 X66.834 Y75.124
G01 F400 X66.540 Y74.993
G01 F400 X66.280 Y74.804
G01 F400 X66.065 Y74.565
G01 F400 X66.040 Y74.522
G01 F400 X66.015 Y74.565
G01 F400 X65.800 Y74.804
G01 F400 X65.540 Y74.993
G01 F400 X65.246 Y75.124
G01 F400 X64.931 Y75.191
G01 F400 X64.609 Y75.191
G01 F400 X64.294 Y75.124
G01 F400 X64.000 Y74.993
G01 F400 X63.740 Y74.804
G01 F400 X63.525 Y74.565
G01 F400 X63.500 Y74.522
G01 F400 X63.475 Y74.565
G01 F400 X63.260 Y74.804
G01 F400 X63.000 Y74.993
G01 F400 X62.706 Y75.124
G01 F400 X62.391 Y75.191
G01 F400 X62.069 Y75.191
G01 F400 X61.754 Y75.124
G01 F400 X61.460 Y74.993
G01 F400 X61.200 Y74.804
G01 F400 X60.985 Y74.565
G01 F400 X60.960 Y74.522
G01 F400 X60.935 Y74.565
G01 F400 X60.720 Y74.804
G01 F400 X60.460 Y74.993
G01 F400 X60.166 Y75.124
G01 F400 X59.851 Y75.191
G01 F400 X59.529 Y75.191
G01 F400 X59.214 Y75.124
G01 F400 X58.920 Y74.993
G01 F400 X58.660 Y74.804
G01 F400 X58.445 Y74.565
G01 F400 X58.420 Y74.522
G01 F400 X58.395 Y74.565
G01 F400 X58.180 Y74.804
G01 F400 X57.920 Y74.993
G01 F400 X57.626 Y75.124
G01 F400 X57.311 Y75.191
G01 F400 X56.989 Y75.191
G01 F400 X56.674 Y75.124
G01 F400 X56.380 Y74.993
G01 F400 X56.120 Y74.804
G01 F400 X55.905 Y74.565
G01 F400 X55.880 Y74.522
G01 F400 X55.855 Y74.565
G01 F400 X55.640 Y74.804
G01 F400 X55.380 Y74.993
G01 F400 X55.086 Y75.124
G01 F400 X54.771 Y75.191
G01 F400 X54.449 Y75.191
G00 Z3.000
G00  X72.369 Y54.821
G01 F750 Z0
G01 F400 Z-0.100
G01 F400 X72.054 Y54.754
G01 F400 X71.760 Y54.623
G01 F400 X71.500 Y54.434
G01 F400 X71.285 Y54.195
G01 F400 X71.124 Y53.916
G01 F400 X71.024 Y53.610
G01 F400 X70.991 Y53.290
G01 F400 X71.024 Y52.970
G01 F400 X71.124 Y52.664
G01 F400 X71.285 Y52.385
G01 F400 X71.500 Y52.146
G01 F400 X71.674 Y52.020
G01 F400 X71.500 Y51.894
G01 F400 X71.285 Y51.655
G01 F400 X71.124 Y51.376
G01 F400 X71.024 Y51.070
G01 F400 X70.991 Y50.750
G01 F400 X71.024 Y50.430
G01 F400 X71.124 Y50.124
G01 F400 X71.285 Y49.845
G01 F400 X71.500 Y49.606
G01 F400 X71.674 Y49.480
G01 F400 X71.500 Y49.354
G01 F400 X71.285 Y49.115
G01 F400 X71.124 Y48.836
G01 F400 X71.024 Y48.530
G01 F400 X70.991 Y48.210
G01 F400 X71.024 Y47.890
G01 F400 X71.124 Y47.584
G01 F400 X71.285 Y47.305
G01 F400 X71.500 Y47.066
G01 F400 X71.760 Y46.877
G01 F400 X72.054 Y46.746
G01 F400 X72.369 Y46.679
G01 F400 X72.691 Y46.679
G01 F400 X73.006 Y46.746
G01 F400 X73.300 Y46.877
G01 F400 X73.560 Y47.066
G01 F400 X73.775 Y47.305
G01 F400 X73.800 Y47.348
G01 F400 X73.825 Y47.305
G01 F400 X74.040 Y47.066
G01 F400 X74.300 Y46.877
G01 F400 X74.594 Y46.746
G01 F400 X74.909 Y46.679
G01 F400 X75.231 Y46.679
G01 F400 X75.533 Y46.744
G01 F400 X77.460 Y44.816
G01 F400 X77.458 Y18.680
G01 F400 X76.758 Y17.981
G01 F400 X74.069 Y17.981
G01 F400 X74.069 Y14.617
G01 F400 X62.877 Y14.617
G01 F400 X62.877 Y24.013
G01 F400 X63.000 Y24.067
G01 F400 X63.260 Y24.256
G01 F400 X63.475 Y24.495
G01 F400 X63.500 Y24.538
G01 F400 X63.525 Y24.495
G01 F400 X63.740 Y24.256
G01 F400 X64.000 Y24.067
G01 F400 X64.294 Y23.936
G01 F400 X64.609 Y23.869
G01 F400 X64.931 Y23.869
G01 F400 X65.246 Y23.936
G01 F400 X65.540 Y24.067
G01 F400 X65.800 Y24.256
G01 F400 X66.015 Y24.495
G01 F400 X66.040 Y24.538
G01 F400 X66.065 Y24.495
G01 F400 X66.280 Y24.256
G01 F400 X66.540 Y24.067
G01 F400 X66.834 Y23.936
G01 F400 X67.149 Y23.869
G01 F400 X67.471 Y23.869
G01 F400 X67.786 Y23.936
G01 F400 X68.080 Y24.067
G01 F400 X68.340 Y24.256
G01 F400 X68.555 Y24.495
G01 F400 X68.580 Y24.538
G01 F400 X68.605 Y24.495
G01 F400 X68.820 Y24.256
G01 F400 X69.080 Y24.067
G01 F400 X69.374 Y23.936
G01 F400 X69.689 Y23.869
G01 F400 X70.011 Y23.869
G01 F400 X70.326 Y23.936
G01 F400 X70.620 Y24.067
G01 F400 X70.880 Y24.256
G01 F400 X71.095 Y24.495
G01 F400 X71.120 Y24.538
G01 F400 X71.145 Y24.495
G01 F400 X71.360 Y24.256
G01 F400 X71.620 Y24.067
G01 F400 X71.914 Y23.936
G01 F400 X72.229 Y23.869
G01 F400 X72.551 Y23.869
G01 F400 X72.866 Y23.936
G01 F400 X73.160 Y24.067
G01 F400 X73.420 Y24.256
G01 F400 X73.635 Y24.495
G01 F400 X73.796 Y24.774
G01 F400 X73.896 Y25.080
G01 F400 X73.929 Y25.400
G01 F400 X73.896 Y25.720
G01 F400 X73.796 Y26.026
G01 F400 X73.635 Y26.305
G01 F400 X73.420 Y26.544
G01 F400 X73.160 Y26.733
G01 F400 X72.866 Y26.864
G01 F400 X72.551 Y26.931
G01 F400 X72.229 Y26.931
G01 F400 X71.914 Y26.864
G01 F400 X71.620 Y26.733
G01 F400 X71.360 Y26.544
G01 F400 X71.145 Y26.305
G01 F400 X71.120 Y26.262
G01 F400 X71.095 Y26.305
G01 F400 X70.880 Y26.544
G01 F400 X70.620 Y26.733
G01 F400 X70.326 Y26.864
G01 F400 X70.011 Y26.931
G01 F400 X69.689 Y26.931
G01 F400 X69.374 Y26.864
G01 F400 X69.080 Y26.733
G01 F400 X68.820 Y26.544
G01 F400 X68.605 Y26.305
G01 F400 X68.580 Y26.262
G01 F400 X68.555 Y26.305
G01 F400 X68.340 Y26.544
G01 F400 X68.080 Y26.733
G01 F400 X67.786 Y26.864
G01 F400 X67.471 Y26.931
G01 F400 X67.149 Y26.931
G01 F400 X66.834 Y26.864
G01 F400 X66.540 Y26.733
G01 F400 X66.280 Y26.544
G01 F400 X66.065 Y26.305
G01 F400 X66.040 Y26.262
G01 F400 X66.015 Y26.305
G01 F400 X65.800 Y26.544
G01 F400 X65.540 Y26.733
G01 F400 X65.246 Y26.864
G01 F400 X64.931 Y26.931
G01 F400 X64.609 Y26.931
G01 F400 X64.294 Y26.864
G01 F400 X64.000 Y26.733
G01 F400 X63.740 Y26.544
G01 F400 X63.525 Y26.305
G01 F400 X63.500 Y26.262
G01 F400 X63.475 Y26.305
G01 F400 X63.260 Y26.544
G01 F400 X63.000 Y26.733
G01 F400 X62.706 Y26.864
G01 F400 X62.391 Y26.931
G01 F400 X62.069 Y26.931
G01 F400 X61.754 Y26.864
G01 F400 X61.460 Y26.733
G01 F400 X61.200 Y26.544
G01 F400 X60.985 Y26.305
G01 F400 X60.960 Y26.262
G01 F400 X60.935 Y26.305
G01 F400 X60.720 Y26.544
G01 F400 X60.460 Y26.733
G01 F400 X60.166 Y26.864
G01 F400 X59.851 Y26.931
G01 F400 X59.529 Y26.931
G01 F400 X59.214 Y26.864
G01 F400 X58.920 Y26.733
G01 F400 X58.660 Y26.544
G01 F400 X58.445 Y26.305
G01 F400 X58.284 Y26.026
G01 F400 X58.184 Y25.720
G01 F400 X58.151 Y25.400
G01 F400 X58.184 Y25.080
G01 F400 X58.284 Y24.774
G01 F400 X58.445 Y24.495
G01 F400 X58.660 Y24.256
G01 F400 X58.920 Y24.067
G01 F400 X59.214 Y23.936
G01 F400 X59.529 Y23.869
G01 F400 X59.851 Y23.869
G01 F400 X60.166 Y23.936
G01 F400 X60.460 Y24.067
G01 F400 X60.720 Y24.256
G01 F400 X60.935 Y24.495
G01 F400 X60.960 Y24.538
G01 F400 X60.985 Y24.495
G01 F400 X61.200 Y24.256
G01 F400 X61.460 Y24.067
G01 F400 X61.585 Y24.012
G01 F400 X61.583 Y13.880
G01 F400 X61.673 Y13.603
G01 F400 X61.900 Y13.399
G01 F400 X62.132 Y13.323
G01 F400 X74.069 Y13.323
G01 F400 X74.069 Y12.712
G01 F400 X47.637 Y12.712
G01 F400 X47.637 Y24.013
G01 F400 X47.760 Y24.067
G01 F400 X48.020 Y24.256
G01 F400 X48.235 Y24.495
G01 F400 X48.260 Y24.538
G01 F400 X48.285 Y24.495
G01 F400 X48.500 Y24.256
G01 F400 X48.760 Y24.067
G01 F400 X49.054 Y23.936
G01 F400 X49.369 Y23.869
G01 F400 X49.691 Y23.869
G01 F400 X50.006 Y23.936
G01 F400 X50.300 Y24.067
G01 F400 X50.560 Y24.256
G01 F400 X50.775 Y24.495
G01 F400 X50.800 Y24.538
G01 F400 X50.825 Y24.495
G01 F400 X51.040 Y24.256
G01 F400 X51.300 Y24.067
G01 F400 X51.594 Y23.936
G01 F400 X51.909 Y23.869
G01 F400 X52.231 Y23.869
G01 F400 X52.546 Y23.936
G01 F400 X52.840 Y24.067
G01 F400 X53.100 Y24.256
G01 F400 X53.315 Y24.495
G01 F400 X53.340 Y24.538
G01 F400 X53.365 Y24.495
G01 F400 X53.580 Y24.256
G01 F400 X53.840 Y24.067
G01 F400 X54.134 Y23.936
G01 F400 X54.449 Y23.869
G01 F400 X54.771 Y23.869
G01 F400 X55.086 Y23.936
G01 F400 X55.380 Y24.067
G01 F400 X55.640 Y24.256
G01 F400 X55.855 Y24.495
G01 F400 X56.016 Y24.774
G01 F400 X56.116 Y25.080
G01 F400 X56.149 Y25.400
G01 F400 X56.116 Y25.720
G01 F400 X56.016 Y26.026
G01 F400 X55.855 Y26.305
G01 F400 X55.640 Y26.544
G01 F400 X55.380 Y26.733
G01 F400 X55.086 Y26.864
G01 F400 X54.771 Y26.931
G01 F400 X54.449 Y26.931
G01 F400 X54.134 Y26.864
G01 F400 X53.840 Y26.733
G01 F400 X53.580 Y26.544
G01 F400 X53.365 Y26.305
G01 F400 X53.340 Y26.262
G01 F400 X53.315 Y26.305
G01 F400 X53.100 Y26.544
G01 F400 X52.840 Y26.733
G01 F400 X52.546 Y26.864
G01 F400 X52.231 Y26.931
G01 F400 X51.909 Y26.931
G01 F400 X51.594 Y26.864
G01 F400 X51.300 Y26.733
G01 F400 X51.040 Y26.544
G01 F400 X50.825 Y26.305
G01 F400 X50.800 Y26.262
G01 F400 X50.775 Y26.305
G01 F400 X50.560 Y26.544
G01 F400 X50.300 Y26.733
G01 F400 X50.006 Y26.864
G01 F400 X49.691 Y26.931
G01 F400 X49.369 Y26.931
G01 F400 X49.054 Y26.864
G01 F400 X48.760 Y26.733
G01 F400 X48.500 Y26.544
G01 F400 X48.285 Y26.305
G01 F400 X48.260 Y26.262
G01 F400 X48.235 Y26.305
G01 F400 X48.020 Y26.544
G01 F400 X47.760 Y26.733
G01 F400 X47.466 Y26.864
G01 F400 X47.151 Y26.931
G01 F400 X46.829 Y26.931
G01 F400 X46.514 Y26.864
G01 F400 X46.220 Y26.733
G01 F400 X45.960 Y26.544
G01 F400 X45.745 Y26.305
G01 F400 X45.720 Y26.262
G01 F400 X45.695 Y26.305
G01 F400 X45.480 Y26.544
G01 F400 X45.220 Y26.733
G01 F400 X44.926 Y26.864
G01 F400 X44.611 Y26.931
G01 F400 X44.289 Y26.931
G01 F400 X43.974 Y26.864
G01 F400 X43.680 Y26.733
G01 F400 X43.420 Y26.544
G01 F400 X43.205 Y26.305
G01 F400 X43.180 Y26.262
G01 F400 X43.155 Y26.305
G01 F400 X42.940 Y26.544
G01 F400 X42.680 Y26.733
G01 F400 X42.386 Y26.864
G01 F400 X42.071 Y26.931
G01 F400 X41.749 Y26.931
G01 F400 X41.434 Y26.864
G01 F400 X41.140 Y26.733
G01 F400 X40.880 Y26.544
G01 F400 X40.665 Y26.305
G01 F400 X40.640 Y26.262
G01 F400 X40.615 Y26.305
G01 F400 X40.400 Y26.544
G01 F400 X40.140 Y26.733
G01 F400 X39.846 Y26.864
G01 F400 X39.531 Y26.931
G01 F400 X39.209 Y26.931
G01 F400 X38.894 Y26.864
G01 F400 X38.600 Y26.733
G01 F400 X38.340 Y26.544
G01 F400 X38.125 Y26.305
G01 F400 X38.100 Y26.262
G01 F400 X38.075 Y26.305
G01 F400 X37.860 Y26.544
G01 F400 X37.600 Y26.733
G01 F400 X37.306 Y26.864
G01 F400 X36.991 Y26.931
G01 F400 X36.669 Y26.931
G01 F400 X36.354 Y26.864
G01 F400 X36.060 Y26.733
G01 F400 X35.800 Y26.544
G01 F400 X35.585 Y26.305
G01 F400 X35.424 Y26.026
G01 F400 X35.324 Y25.720
G01 F400 X35.291 Y25.400
G01 F400 X35.324 Y25.080
G01 F400 X35.424 Y24.774
G01 F400 X35.585 Y24.495
G01 F400 X35.800 Y24.256
G01 F400 X36.060 Y24.067
G01 F400 X36.354 Y23.936
G01 F400 X36.669 Y23.869
G01 F400 X36.991 Y23.869
G01 F400 X37.306 Y23.936
G01 F400 X37.600 Y24.067
G01 F400 X37.860 Y24.256
G01 F400 X38.075 Y24.495
G01 F400 X38.100 Y24.538
G01 F400 X38.125 Y24.495
G01 F400 X38.340 Y24.256
G01 F400 X38.600 Y24.067
G01 F400 X38.894 Y23.936
G01 F400 X39.209 Y23.869
G01 F400 X39.531 Y23.869
G01 F400 X39.846 Y23.936
G01 F400 X40.140 Y24.067
G01 F400 X40.400 Y24.256
G01 F400 X40.615 Y24.495
G01 F400 X40.640 Y24.538
G01 F400 X40.665 Y24.495
G01 F400 X40.880 Y24.256
G01 F400 X41.140 Y24.067
G01 F400 X41.434 Y23.936
G01 F400 X41.749 Y23.869
G01 F400 X42.071 Y23.869
G01 F400 X42.386 Y23.936
G01 F400 X42.680 Y24.067
G01 F400 X42.940 Y24.256
G01 F400 X43.155 Y24.495
G01 F400 X43.180 Y24.538
G01 F400 X43.205 Y24.495
G01 F400 X43.420 Y24.256
G01 F400 X43.680 Y24.067
G01 F400 X43.974 Y23.936
G01 F400 X44.289 Y23.869
G01 F400 X44.611 Y23.869
G01 F400 X44.926 Y23.936
G01 F400 X45.220 Y24.067
G01 F400 X45.480 Y24.256
G01 F400 X45.695 Y24.495
G01 F400 X45.720 Y24.538
G01 F400 X45.745 Y24.495
G01 F400 X45.960 Y24.256
G01 F400 X46.220 Y24.067
G01 F400 X46.345 Y24.012
G01 F400 X46.343 Y11.975
G01 F400 X46.433 Y11.698
G01 F400 X46.660 Y11.494
G01 F400 X46.892 Y11.418
G01 F400 X67.638 Y11.418
G01 F400 X66.790 Y10.919
G01 F400 X66.360 Y9.258
G01 F400 X67.231 Y7.780
G01 F400 X68.892 Y7.350
G01 F400 X70.370 Y8.221
G01 F400 X70.800 Y9.882
G01 F400 X69.929 Y11.360
G01 F400 X69.704 Y11.418
G01 F400 X74.069 Y11.418
G01 F400 X74.069 Y9.959
G01 F400 X77.091 Y9.959
G01 F400 X77.091 Y16.486
G01 F400 X78.591 Y17.986
G01 F400 X78.708 Y18.147
G01 F400 X78.752 Y18.355
G01 F400 X78.752 Y45.145
G01 F400 X78.708 Y45.353
G01 F400 X78.591 Y45.514
G01 F400 X76.487 Y47.618
G01 F400 X76.576 Y47.890
G01 F400 X76.609 Y48.210
G01 F400 X76.576 Y48.530
G01 F400 X76.476 Y48.836
G01 F400 X76.315 Y49.115
G01 F400 X76.100 Y49.354
G01 F400 X75.926 Y49.480
G01 F400 X76.100 Y49.606
G01 F400 X76.315 Y49.845
G01 F400 X76.476 Y50.124
G01 F400 X76.576 Y50.430
G01 F400 X76.609 Y50.750
G01 F400 X76.576 Y51.070
G01 F400 X76.476 Y51.376
G01 F400 X76.315 Y51.655
G01 F400 X76.100 Y51.894
G01 F400 X75.926 Y52.020
G01 F400 X76.100 Y52.146
G01 F400 X76.315 Y52.385
G01 F400 X76.476 Y52.664
G01 F400 X76.576 Y52.970
G01 F400 X76.609 Y53.290
G01 F400 X76.576 Y53.610
G01 F400 X76.476 Y53.916
G01 F400 X76.315 Y54.195
G01 F400 X76.100 Y54.434
G01 F400 X75.840 Y54.623
G01 F400 X75.546 Y54.754
G01 F400 X75.231 Y54.821
G01 F400 X74.909 Y54.821
G01 F400 X74.594 Y54.754
G01 F400 X74.300 Y54.623
G01 F400 X74.040 Y54.434
G01 F400 X73.825 Y54.195
G01 F400 X73.800 Y54.152
G01 F400 X73.775 Y54.195
G01 F400 X73.560 Y54.434
G01 F400 X73.300 Y54.623
G01 F400 X73.006 Y54.754
G01 F400 X72.691 Y54.821
G01 F400 X72.369 Y54.821
G00 Z3.000
G00  X73.800 Y52.428
G01 F750 Z0
G01 F400 Z-0.100
G01 F400 X73.825 Y52.385
G01 F400 X74.040 Y52.146
G01 F400 X74.214 Y52.020
G01 F400 X74.040 Y51.894
G01 F400 X73.825 Y51.655
G01 F400 X73.800 Y51.612
G01 F400 X73.775 Y51.655
G01 F400 X73.560 Y51.894
G01 F400 X73.386 Y52.020
G01 F400 X73.560 Y52.146
G01 F400 X73.775 Y52.385
G01 F400 X73.800 Y52.428
G00 Z3.000
G00  X73.800 Y49.888
G01 F750 Z0
G01 F400 Z-0.100
G01 F400 X73.825 Y49.845
G01 F400 X74.040 Y49.606
G01 F400 X74.214 Y49.480
G01 F400 X74.040 Y49.354
G01 F400 X73.825 Y49.115
G01 F400 X73.800 Y49.072
G01 F400 X73.775 Y49.115
G01 F400 X73.560 Y49.354
G01 F400 X73.386 Y49.480
G01 F400 X73.560 Y49.606
G01 F400 X73.775 Y49.845
G01 F400 X73.800 Y49.888
G00 Z3.000
G00  X68.268 Y20.590
G01 F750 Z0
G01 F400 Z-0.100
G01 F400 X66.790 Y19.719
G01 F400 X66.360 Y18.058
G01 F400 X67.231 Y16.580
G01 F400 X68.892 Y16.150
G01 F400 X70.370 Y17.021
G01 F400 X70.800 Y18.682
G01 F400 X69.929 Y20.160
G01 F400 X68.268 Y20.590
G00 Z3.000
G00 Z3.000
M05
M30
%