( PCB drills )
( Generated by Carbide Copper )
( Material Size )
( X= 152.400, Y= 101.600, Z= 1.580 )
()
G17
G21
G54
G90
T1 M06
G00  X24.130 Y73.660
G00 F750 Z0
G01 F15000 Z-1.780
G00 Z3.000
G00  X74.930 Y58.420
G00 F750 Z0
G01 F15000 Z-1.780
G00 Z3.000
G00  X74.930 Y30.480
G00 F750 Z0
G01 F15000 Z-1.780
G00 Z3.000
G00  X22.860 Y25.400
G00 F750 Z0
G01 F15000 Z-1.780
G00 Z3.000
T2 M06
G00  X68.580 Y18.370
G00 F750 Z0
G01 F15000 Z-1.780
G00 Z3.000
G00  X68.580 Y9.570
G00 F750 Z0
G01 F15000 Z-1.780
G00 Z3.000
T3 M06
G00  X41.910 Y25.400
G00 F750 Z0
G01 F15000 Z-1.780
G00 Z3.000
G00  X44.450 Y25.400
G00 F750 Z0
G01 F15000 Z-1.780
G00 Z3.000
G00  X46.990 Y25.400
G00 F750 Z0
G01 F15000 Z-1.780
G00 Z3.000
G00  X49.530 Y25.400
G00 F750 Z0
G01 F15000 Z-1.780
G00 Z3.000
G00  X52.070 Y25.400
G00 F750 Z0
G01 F15000 Z-1.780
G00 Z3.000
G00  X54.610 Y25.400
G00 F750 Z0
G01 F15000 Z-1.780
G00 Z3.000
G00  X59.690 Y25.400
G00 F750 Z0
G01 F15000 Z-1.780
G00 Z3.000
G00  X62.230 Y25.400
G00 F750 Z0
G01 F15000 Z-1.780
G00 Z3.000
G00  X64.770 Y25.400
G00 F750 Z0
G01 F15000 Z-1.780
G00 Z3.000
G00  X67.310 Y25.400
G00 F750 Z0
G01 F15000 Z-1.780
G00 Z3.000
G00  X69.850 Y25.400
G00 F750 Z0
G01 F15000 Z-1.780
G00 Z3.000
G00  X72.390 Y25.400
G00 F750 Z0
G01 F15000 Z-1.780
G00 Z3.000
G00  X72.390 Y73.660
G00 F750 Z0
G01 F15000 Z-1.780
G00 Z3.000
G00  X69.850 Y73.660
G00 F750 Z0
G01 F15000 Z-1.780
G00 Z3.000
G00  X67.310 Y73.660
G00 F750 Z0
G01 F15000 Z-1.780
G00 Z3.000
G00  X64.770 Y73.660
G00 F750 Z0
G01 F15000 Z-1.780
G00 Z3.000
G00  X62.230 Y73.660
G00 F750 Z0
G01 F15000 Z-1.780
G00 Z3.000
G00  X59.690 Y73.660
G00 F750 Z0
G01 F15000 Z-1.780
G00 Z3.000
G00  X57.150 Y73.660
G00 F750 Z0
G01 F15000 Z-1.780
G00 Z3.000
G00  X54.610 Y73.660
G00 F750 Z0
G01 F15000 Z-1.780
G00 Z3.000
G00  X50.546 Y73.660
G00 F750 Z0
G01 F15000 Z-1.780
G00 Z3.000
G00  X48.006 Y73.660
G00 F750 Z0
G01 F15000 Z-1.780
G00 Z3.000
G00  X45.466 Y73.660
G00 F750 Z0
G01 F15000 Z-1.780
G00 Z3.000
G00  X42.926 Y73.660
G00 F750 Z0
G01 F15000 Z-1.780
G00 Z3.000
G00  X40.386 Y73.660
G00 F750 Z0
G01 F15000 Z-1.780
G00 Z3.000
G00  X37.846 Y73.660
G00 F750 Z0
G01 F15000 Z-1.780
G00 Z3.000
G00  X35.306 Y73.660
G00 F750 Z0
G01 F15000 Z-1.780
G00 Z3.000
G00  X32.766 Y73.660
G00 F750 Z0
G01 F15000 Z-1.780
G00 Z3.000
G00  X30.226 Y73.660
G00 F750 Z0
G01 F15000 Z-1.780
G00 Z3.000
G00  X27.686 Y73.660
G00 F750 Z0
G01 F15000 Z-1.780
G00 Z3.000
G00  X72.530 Y53.290
G00 F750 Z0
G01 F15000 Z-1.780
G00 Z3.000
G00  X75.070 Y53.290
G00 F750 Z0
G01 F15000 Z-1.780
G00 Z3.000
G00  X36.830 Y25.400
G00 F750 Z0
G01 F15000 Z-1.780
G00 Z3.000
G00  X75.070 Y50.750
G00 F750 Z0
G01 F15000 Z-1.780
G00 Z3.000
G00  X72.530 Y48.210
G00 F750 Z0
G01 F15000 Z-1.780
G00 Z3.000
G00  X75.070 Y48.210
G00 F750 Z0
G01 F15000 Z-1.780
G00 Z3.000
G00  X72.530 Y50.750
G00 F750 Z0
G01 F15000 Z-1.780
G00 Z3.000
G00  X39.370 Y25.400
G00 F750 Z0
G01 F15000 Z-1.780
G00 Z3.000
T4 M06
G00  X75.580 Y11.470
G00 F750 Z0
G01 F15000 Z-1.780
G00 Z3.000
G00  X75.580 Y13.970
G00 F750 Z0
G01 F15000 Z-1.780
G00 Z3.000
G00  X75.580 Y16.470
G00 F750 Z0
G01 F15000 Z-1.780
G00 Z3.000
T5 M06
G00  X45.720 Y83.820
G00 F750 Z0
G01 F15000 Z-1.780
G00 Z3.000
G00  X38.100 Y83.820
G00 F750 Z0
G01 F15000 Z-1.780
G00 Z3.000
T6 M06
G00  X30.480 Y83.820
G00 F750 Z0
G01 F15000 Z-1.780
G00 Z3.000
G00  X27.940 Y83.820
G00 F750 Z0
G01 F15000 Z-1.780
G00 Z3.000
G00 Z3.000
M05
M30
%