( PCB Cuts )
( Generated by Carbide Copper )
( Material Size )
( X= 152.400, Y= 101.600, Z= 1.580 )
()
G17
G21
G54
G90
G00  X-0.097 Y92.360
G01 F750 Z0
G01 F200 Z-1.580
G01 F200 X-0.286 Y92.320
G01 F200 X-0.462 Y92.241
G01 F200 X-0.619 Y92.127
G01 F200 X-0.748 Y91.984
G01 F200 X-0.845 Y91.816
G01 F200 X-0.905 Y91.632
G01 F200 X-0.921 Y91.482
G01 F200 X-0.921 Y19.008
G01 F200 X-0.905 Y18.858
G01 F200 X-0.845 Y18.674
G01 F200 X-0.748 Y18.506
G01 F200 X-0.661 Y18.409
G01 F200 X8.288 Y9.460
G01 F200 X8.428 Y9.359
G01 F200 X8.604 Y9.280
G01 F200 X8.793 Y9.240
G01 F200 X55.498 Y9.240
G01 F200 X61.309 Y3.429
G01 F200 X61.309 Y-0.042
G01 F200 X61.325 Y-0.192
G01 F200 X61.385 Y-0.376
G01 F200 X61.482 Y-0.544
G01 F200 X61.611 Y-0.687
G01 F200 X61.768 Y-0.801
G01 F200 X61.944 Y-0.880
G01 F200 X62.133 Y-0.920
G01 F200 X82.647 Y-0.920
G01 F200 X82.836 Y-0.880
G01 F200 X83.012 Y-0.801
G01 F200 X83.152 Y-0.700
G01 F200 X85.751 Y1.900
G01 F200 X85.839 Y1.997
G01 F200 X85.935 Y2.164
G01 F200 X85.995 Y2.348
G01 F200 X86.011 Y2.498
G01 F200 X86.011 Y91.482
G01 F200 X85.995 Y91.632
G01 F200 X85.935 Y91.816
G01 F200 X85.838 Y91.984
G01 F200 X85.709 Y92.127
G01 F200 X85.552 Y92.241
G01 F200 X85.376 Y92.320
G01 F200 X85.187 Y92.360
G01 F200 X-0.097 Y92.360
G00 Z3.000
G00 Z3.000
M05
M30
%